X:1
T:English Suite II (A = 415 Hz)
T:BWV 807
T:J. S. Bach
%%score { ( 1 4 5 ) | ( 2 3 6 7 ) }
L:1/8
M:3/4
K:C
V:1 treble 
V:4 treble 
V:5 treble 
V:2 bass 
V:3 bass 
V:6 bass 
V:7 bass 
V:1
"^Prelude" z e Aa g/e/f/d/ | e/d/c/B/ c/B/c/f/ B/e/A/d/ | ^G/d/B/G/ d/B/G/B/ E/d/c/B/ | %3
 c/B/A/^G/ A/B/c/F/ B/E/A/B/ | ^GE GB GE | A/g/e/^c/ g/e/c/e/ A/G/^F/E/ | ^Fd ^fa fd | %7
 g/f/d/B/ f/d/B/d/ G/f/e/d/ | e/d/c/B/ A/c/d/^f/ g/B/c/A/ | B/d/e/f/ g/A/^A/G/ g/=A/^A/G/ | %10
 A/c/d/e/ f/G/A/F/ f/G/A/F/ | G/E/G/B/ e/F/G/E/ e/F/G/E/ | F/D/F/A/ d/E/F/D/ d/E/F/D/ | %13
 E/D/C/B,/ C/^G,/A,/E/ D/B,/C/A,/ | B,/D/B,/^G,/ D/B,/G,/B,/ E,/D/C/B,/ | %15
 C/A,/^C/E/ G/E/C/E/ A,/G/F/E/ | F/A,/D/F/ A/^F/^D/F/ B,/A/^G/F/ | ^G/E/G/B/ d/B/G/B/ E/d/c/B/ | %18
 ce Aa g/e/f/d/ | b/a/^g/^f/ g/f/g/b/ e/g/a/c/ | d/f/c/f/ B/f/c/f/ B/f/A/f/ | %21
 ^G/B/e/E/ A/c/e/E/ G/B/d/E/ | c4 F/E/F/c/ | B4 E/D/E/_B/ | A2 F/E/F/A/ ^G/B/A/c/ | %25
 B/c/d/B/ ^G/E/F/D/ E/C/D/B,/ | C/E/A/^G/ A/D/E/C/ D/B,/C/A,/ | ^G,/E/B/A/ B/E/F/D/ E/C/D/B,/ | %28
 C/D/E/B,/ CD CB, |[I:staff +1] A,/B,/C/^G,/ A,/E,/F,/B,/ E,/A,/D,/G,/ | %30
 C,/E,/A,- A,^G, A,/C/B,/D/ | %31
 ^G,/B,/[I:staff -1]D/F/ D/[I:staff +1]B,/G,/B,/ E,/[I:staff -1]D/C/B,/ | C/E/A- A^G A/c/B/d/ | %33
 ^G/B/d/^e/ d/B/G/B/ E/d/c/B/ | c/e/a- a^g a/c'/b/a/ | ^g/^f/g/b/ a/g/a/c'/ g/f/g/b/ | %36
 ^f/e/f/a/ =f/e/f/b/ e/d/e/a/ | d/c/d/^g/ e/d/e/a/ d/^B/d/g/ | c/B/c/^f/ d/c/d/^g/ c/B/c/f/ | %39
 B/A/B/e/ d/B/c/A/ B/^G/A/^F/ | ^G/^F/G/B/ E/^D/E/G/ =D/C/D/=F/ | %41
[I:staff +1] B,/A,/B,/D/ ^G,/^F,/G,/B,/ E,[I:staff -1] z | %42
 z/[I:staff +1] D,/C,/B,,/ F,/D,/C,/B,,/ ^G,/D,/C,/B,,/ | B,/F,/E,/D,/ ^G,/F,/E,/D,/ B,/F,/E,/D,/ | %44
 D/^G,/^F,/E,/ B,/G,/F,/E,/ D/B,/A,/G,/ | F/E/D/C/ B,/A,/^G,/^F,/[I:staff -1] z2 | %46
 z e Aa g/e/f/d/ | e/B/c/^G/ A/c/f/d/ e/c/d/B/ | c/B/c/^G/ A/c/e/c/ d/B/c/A/ | %49
 B/A/B/^G/ A/G/A/f/ e/c/d/B/ | c/B/A/^G/ A/B/c/f/ e/c/d/B/ | c/B/A/^G/ A/B/c/d/ c/A/B/G/ | %52
 A/B/c/A/ ^G/A/c/A/ B/G/A/^F/ | ^G/F/E/D/ C/B,/C/A/ B,/A/B,/G/ | AE E/F/E EE |{E} FD D/E/D DD | %56
{D} EG G/A/G GG |{G} A^F F/G/F FF |{^F} GB Ee d/B/c/A/ | B/A/G/^F/ G/F/G/c/ F/B/E/A/ | %60
 ^D/A/^F/D/ A/F/D/F/ B,/A/G/F/ | GB, B,/C/B, B,B, |{B,} CA, A,/B,/A, A,A, |{A,} B,D D/E/D DD | %64
{D} E^C C/D/C CC |{^C} D/B,/D/^F/ B/D/F/B/ dd | d/E/^G/B/ d/B/G/B/ E/d/c/B/ | %67
 c/A,/C/E/ A/C/E/A/ cc | c/D/^F/A/ c/A/F/A/ E/c/B/A/ | B/^F/G/A/ D/F/G/B/ D/F/G/B/ | %70
 c/^F/G/c/ D/F/G/c/ D/F/G/c/ | d/^F/G/d/ D/F/G/d/ D/F/G/d/ | E/D/E/d/ E/D/E/d/ E/D/E/d/ | %73
 E/D/E/c/ E/D/E/c/ E/D/E/c/ | ^F/E/F/c/ F/E/F/c/ F/E/F/c/ | G/^F/G/B/ G/F/G/B/ G/F/G/B/ | %76
 G/^F/G/e/ G/F/G/e/ G/F/G/e/ | ^F/D/F/A/ d/E/=F/D/ d/E/F/D/ | E/C/E/G/ c/D/E/C/ c/D/E/C/ | %79
 Dd d/e/d dd | dc c/d/c cc | B/A/G/^F/ G/F/G/c/ F/B/E/A/ | ^D/c/B/A/ ^F/c/B/A/ A/c/B/A/ | %83
 B,/A/G/^F/ ^D/A/G/F/ F/A/G/F/ | A,/^F/E/^D/ C/F/E/D/ D/F/E/D/ | A/^F/E/^D/ c/F/E/D/ B/A/G/F/ | %86
 GB Ee d/B/c/A/ | B/^F/G/^D/ E/G/^B/A/ =B/G/A/F/ | G/^F/G/^D/ E/G/B/G/ A/F/G/E/ | %89
 ^F/E/F/^D/ E/D/E/c/ B/G/A/F/ | G/^F/E/^D/ E/F/G/c/ B/G/A/F/ | G/^F/E/^D/ E/F/G/A/ G/E/F/D/ | %92
 E/^F/G/E/ ^D/E/G/E/ F/D/E/^C/ | ^D/c/B/A/ G/A/B/c/ G/4^F/4E/4F/4G/4F/4E/ | EG G/A/G GG | %95
 _BG G/A/G G/B/A/G/ | FF F/G/F FF | dF F/G/F F/A/G/F/ | E/B,/C/E/ G,/B,/C/E/ G,/B,/C/E/ | %99
 F/B,/C/F/ G,/B,/C/F/ G,/B,/C/F/ | G/B,/C/G/ G,/B,/C/G/ G,/B,/C/G/ | %101
 A,/G,/A,/G/ A,/G,/A,/G/ A,/G,/A,/G/ | A,/G,/A,/F/ A,/G,/A,/F/ A,/G,/A,/F/ | %103
 B,/A,/B,/F/ B,/A,/B,/F/ B,/A,/B,/F/ | C/B,/C/E/ C/B,/C/E/ C/B,/C/E/ | %105
 C/B,/C/_E/ C/B,/C/E/ C/B,/C/A/ | B,/D/F/_A/ F/D/B,/G,/ z2 | c/4B/4c3/2 _E2 z B | %108
 ^c/4B/4cd/ e/4d/4e/4d/4e/4d/4e/4d/4 e/4d/4e/4d/4 =c | ce Aa g/e/f/d/ | %110
 e/d/c/B/ c/B/c/f/ B/e/A/d/ | ^G/d/B/G/ d/B/G/B/ E/d/c/B/ | c/B/A/^G/ A/B/c/F/ B/E/A/B/ | %113
 ^GE GB GE | A/g/e/^c/ g/e/c/e/ A/G/^F/E/ | ^Fd ^fa fd | g/f/d/B/ f/d/B/d/ G/f/e/d/ | %117
 e/d/c/B/ A/c/d/^f/ g/B/c/A/ | B/d/e/f/ g/A/_B/G/ g/A/B/G/ | A/c/d/e/ f/G/A/F/ f/G/A/F/ | %120
 G/E/G/B/ e/F/G/E/ e/F/G/E/ | F/D/F/A/ d/E/F/D/ d/E/F/D/ | E/D/C/B,/ C/^G,/A,/E/ D/B,/C/A,/ | %123
 B,/D/B,/^G,/ D/B,/G,/B,/ E,/D/C/B,/ | C/A,/^C/E/ G/E/C/E/ A,/G/F/E/ | %125
 F/A,/D/F/ A/^F/^D/F/ B,/A/^G/F/ | ^G/E/G/B/ d/B/G/B/ E/d/c/B/ | ce Aa g/e/f/d/ | %128
 b/a/^g/^f/ g/f/g/b/ e/g/a/^B/ | d/f/c/f/ B/f/c/f/ B/f/A/f/ | ^G/B/e/E/ A/c/f/E/ G/B/d/E/ | %131
 c4 F/E/F/c/ | B4 E/D/E/_B/ | A2 F/E/F/A/ ^G/B/A/c/ | B/c/d/B/ ^G/E/F/D/ E/C/D/B,/ | %135
 C/E/A/^G/ A/D/E/C/ D/B,/C/A,/ | ^G,/E/B/A/ B/E/F/D/ E/C/D/B,/ | C/D/E/B,/ CD CB, | %138
[I:staff +1] A,/B,/C/^G,/ A,/E,/F,/B,/ E,/A,/D,/G,/ | C,/E,/A,- A,^G, A,/C/B,/D/ | %140
 ^G,/B,/[I:staff -1]D/F/ D/[I:staff +1]B,/G,/B,/ E,/[I:staff -1]D/C/B,/ | C/E/A- A^G A/c/B/d/ | %142
 ^G/B/d/f/ d/B/G/B/ E/d/c/B/ | c/e/a- a^g a/c'/b/a/ | ^g/^f/g/b/ a/g/a/c'/ g/f/g/b/ | %145
 ^f/e/f/a/ =f/e/f/b/ e/d/e/a/ | d/c/d/^g/ e/d/e/a/ d/c/d/g/ | c/B/c/^f/ d/c/d/^g/ c/B/c/f/ | %148
 B/A/B/e/ d/B/c/A/ B/^G/A/^F/ | ^G/^F/G/B/ E/^D/E/G/ =D/C/D/=F/ | %150
[I:staff +1] B,/A,/B,/D/ ^G,/^F,/G,/B,/ E,[I:staff -1] z | %151
 z/[I:staff +1] D,/C,/B,,/ F,/D,/C,/B,,/ ^G,/D,/C,/B,,/ | B,/F,/E,/D,/ ^G,/F,/E,/D,/ B,/F,/E,/D,/ | %153
 D/^G,/^F,/E,/ B,/G,/F,/E,/ D/B,/A,/G,/ | F/E/D/C/ B,/A,/^G,/^F,/[I:staff -1] z2 | %155
 z e Aa g/e/f/d/ | e/B/c/^G/ A/c/f/d/ e/c/d/B/ | c/B/c/^G/ A/c/e/c/ d/B/c/A/ | %158
 B/A/B/^G/ A/G/A/f/ e/c/d/B/ | c/B/A/^G/ A/B/c/f/ e/c/d/B/ | c/B/A/^G/ A/B/c/d/ c/A/B/G/ | %161
 A/B/c/A/ ^G/A/c/A/ B/G/A/^F/ | ^G/F/E/D/ C/B,/C/A/ B,/A/B,/G/ | A6 | %164
[M:4/4]"^Allemande"[Q:1/4=100] z4 z2 z z/ e/ | e>e a/^g/a/b/ d/f/e/f/- f/f/e/d/ | %166
 c/B/A/B/ z a- a/a/^g/a/ b2- | be a>g f/e/d/e/ ^f/g/a/f/ | gd g>f e4 | d8- | %170
 d/f/e/d/ d/4c/4d/4c/4d/4c/4B/ B/G/B/e/- e>e | g>a ^f>f f/a/g/f/ e/^d/e/f/ | %172
 A/c/B/c/ ^D/c/B/A/ G/^F/E/F/ G/A/B/G/ | c/4B/4cB/ A2- A/A/G/^F/ G/E/F/G/ | %174
 ^C/E/D/E/ ^A,/G/^F/E/ ^D/C/B, B/4A/4BB/ | e/c/B/A/ ^f/4e/4ff/ f/g/4a/4g/f/ g/4f/4g/4f/4g/4f/4e/ | %176
 e4- e7/2 e/ | e>e a/^g/a/b/ d/f/e/f/- f/f/e/d/ | c/B/A/B/ z a- a/a/^g/a/ b2- | %179
 be a>g f/e/d/e/ ^f/g/a/f/ | gd g>f e4 | d8- | d/f/e/d/ d/4c/4d/4c/4d/4c/4B/ B/G/B/e/- e>e | %183
 g>a ^f>f f/a/g/f/ e/^d/e/f/ | A/c/B/c/ ^D/c/B/A/ G/^F/E/F/ G/A/B/G/ | %185
 c/4B/4cB/ A2- A/A/G/^F/ G/E/F/G/ | ^C/E/D/E/ ^A,/G/^F/E/ ^D/C/B, B/4A/4BB/ | %187
 e/c/B/A/ ^f/4e/4ff/ f/g/4a/4g/f/ g/4f/4g/4f/4g/4f/4e/ | e4- e7/2 B/ | %189
 B>B D/F/E/D/ ^G/E/F/E/ B/D/E/F/ | ^C/B,/A,/B,/ C/D/E/F/ G/F/E/F/ G/_B/A/G/ | %191
 c>c B/c/d/4c/4[BB]/4c/4 d>e A/B/c/d/ | c/4B/4c/4B/4c/4B/4d/ F/A/G/F/ B/G/A/G/ d/F/G/A/ | %193
{F} E>b d/f/e/d/ ^g/e/f/e/ b/d/e/f/ | ^c/B/c/A/ g>g g/a/f/g/ f/4e/4f/4e/4f/4e/4a/ | %195
 g/f/e/d/ f/4e/4ff/ f/B/c/d/ e>e | e/c/B/A/ d/4c/4dd/ d/^G/A/B/ c>c | %197
 c/A/G/F/ _B/A/^G/A/ D/G/A/=B/ c/B/c/A/ | BE e>e e/c/B/A/ a>a | z2 b>b b/a/4^g/4a/d/ cc/4B/4A/ | %200
 A4- A7/2 B/ | B>B D/F/E/D/ ^G/E/F/E/ B/D/E/F/ | ^C/B,/A,/B,/ C/D/E/F/ G/F/E/F/ G/_B/A/G/ | %203
 c>c B/c/d/4c/4[BB]/4c/4 d>e A/B/c/d/ | c/4B/4c/4B/4c/4B/4d/ F/A/G/F/ B/G/A/G/ d/F/G/A/ | %205
{F} E>b d/f/e/d/ ^g/e/f/e/ b/d/e/f/ | ^c/B/c/A/ g>g g/a/f/g/ f/4e/4f/4e/4f/4e/4a/ | %207
 g/f/e/d/ f/4e/4ff/ f/B/c/d/ e>e | e/c/B/A/ d/4c/4dd/ d/^G/A/B/ c>c | %209
 c/A/G/F/ _B/A/^G/A/ D/G/A/=B/ c/B/c/A/ | BE e>e e/c/B/A/ a>a | z2 b>b b/a/4^g/4a/d/ cc/4B/4A/ | %212
 A4- A7/2 z/ |[M:3/2]"^Courante"[Q:1/4=160] z8 z2 z A | A3 B cdef edcB | %215
 d/4c/4d/4c/4d/4c/4d/4c/4 d/4c/4d/4c/4 B A2 a2 ^g2 a/4g/4a/b | e3 g fedf edef | %217
{c} B4 z2 ^GA B/4A/4B/4A/4B/4A/4B/4A/4 B/4A/4B/4A/4 G/A/ | %218
 B3 c dBcd e/4d/4e/4d/4e/4d/4e/4d/4 e/4d/4e/4d/4 c/d/ | %219
 e3 f gefg a/4g/4a/4g/4a/4g/4a/4g/4 a/4g/4a/4g/4 f/g/ | a_bag fedc f/4e/4f/- f2 f | %221
 !arpeggio!f3 d efga gfed | d/4e/4f/4e/4f/4e/4f/4e/4 f/4e/4d/4e/4 d cedc BABc | %223
 GF/4E/4F3/2 E FDEF GA_BG | A3 G FEDd c/4B/4c/4B/4c/4B/4c/4B/4 c/4B/4c/4B/4 c | c6- c4- c A | %226
 A3 B cdef edcB | d/4c/4d/4c/4d/4c/4d/4c/4 d/4c/4d/4c/4 B A2 a2 ^g2 a/4g/4a/b | e3 g fedf edef | %229
{c} B4 z2 ^GA B/4A/4B/4A/4B/4A/4B/4A/4 B/4A/4B/4A/4 G/A/ | %230
 B3 c dBcd e/4d/4e/4d/4e/4d/4e/4d/4 e/4d/4e/4d/4 c/d/ | %231
 e3 f gefg a/4g/4a/4g/4a/4g/4a/4g/4 a/4g/4a/4g/4 f/g/ | a_bag fedc f/4e/4f/- f2 f | %233
 !arpeggio!f3 d efga gfed | d/4e/4f/4e/4f/4e/4f/4e/4 f/4e/4d/4e/4 d cedc BABc | %235
 GF/4E/4F3/2 E FDEF GA_BG | A3 G FEDd c/4B/4c/4B/4c/4B/4c/4B/4 c/4B/4c/4B/4 c | c6- c4- c e | %238
 e3 d cBAG ^F^GAB | A/4^G/4A/4G/4A/4G/4A/4G/4 A/4G/4A/4G/4 A B2 EA/4B/4A/4B/4 c/4B/4A/4B/4dcB | %240
 c3 B ABcd efge | d/4^c/4d/4c/4d/4c/4d/4c/4 d/4c/4d/4c/4 d e2 a2 agfe | %242
 g/4f/4e/4f/4- f2 g a2 de gfed | d/4^c/4d3/2- d4 fe d=cdB | g3 f edcB cA d2 | %245
 cc/4B/4c/4B/4AG ABcd eBcA | G/4^F/4G/4F/4EFA Bcde fe a2 | %247
 a/4^g/4a/4g/4a/4g/4a/4g/4 a/4g/4a/4g/4 a be c'2 c'bag | %248
 aefd e/4d/4e/- e2 f c/4B/4c/4B/4c/4B/4c/4B/4 c/4B/4c/4B/4 A | A6- A4- A e | e3 d cBAG ^F^GAB | %251
 A/4^G/4A/4G/4A/4G/4A/4G/4 A/4G/4A/4G/4 A B2 EA/4B/4A/4B/4 c/4B/4A/4B/4dcB | c3 B ABcd efge | %253
 d/4^c/4d/4c/4d/4c/4d/4c/4 d/4c/4d/4c/4 d e2 a2 agfe | g/4f/4e/4f/4- f2 g a2 de gfed | %255
 d/4^c/4d3/2- d4 fe d=cdB | g3 f edcB cA d2 | cc/4B/4c/4B/4AG ABcd eBcA | %258
 G/4^F/4G/4F/4EFA Bcde fe a2 | a/4^g/4a/4g/4a/4g/4a/4g/4 a/4g/4a/4g/4 a be c'2 c'bag | %260
 aefd e/4d/4e/- e2 f c/4B/4c/4B/4c/4B/4c/4B/4 c/4B/4c/4B/4 A | A6- A4- A z | z12 | %263
[M:3/4]"^Sarabande"[Q:1/4=80] c2 cB A^G | A2 A4 | !arpeggio![ce]2 ed cB | B2 c>B A2 | cA FE FA | %268
 dG FE Fd | ee/4d/4e/4d/4 e/4d/4e/4f/4 e dc | g2 g4 | _BA Bg eB | AG Aa f/4_e/4f/4e/4d | %273
 b/c'/4b/4a/4b/4c'/ fe dc | c2 c4 | c2 cB A^G | A/^G/B/A/ A4 | !arpeggio![ce]2 ed c/d/B | %278
 B2 c/4B/4cB/ A2 | c_B/A/ G/FG/4E/4 F/A/=B/d/4c/4 | dc/B/ A/G/F/G/4E/4 F/>G/A/4B/4c/4d/4 | %281
 ed d/4e/4f/ e d/f/4e/4d/e/4c/4 | B<g g4 | _B/A/B/g/ e/c/B/A/ B/A/B/g/ | %284
 c/B/c/e/ d/e/f/g/ a/_e/d/c/ | b/c'/4b/4a/4b/4c'/ fe e/4d/4e/4d/4c | c2 c4 | G2 GF ED | E2 E4 | %289
 ^DA G^F G/B/e | ^d^f/e/{e} f2 B2 | ge cB ^Ag | ^fc BA ^G=f | ec' ba g^f |{^f} g2{f} e4 | ga g4 | %296
 gf g4 | fg f4 | fe f4 | ee/4d/4e/4d/4 e/4d/4e/4f/4e aa/4g/4a/4g/4 | a/4g/4a/4_b/4a ^ga fe | %301
 e/4^d/4e/4d/4e =dc BA | A2 A4 | G2 GF ED | D3/2E/4F/4 E4 | ^D/^F/A/c/ B/F/G/D/ E/G/^A/^c/ | %306
 e/^d/^f/e/ f/e/d/^c/ B2 | g/^f/e/d/ c/B/^A/B/ A/^c/e/g/ | ^f/e/^d/^c/ B/A/^G/A/ G/B/=d/=f/ | %309
 e/a/b/c'/ b/a/c'/b/ a/g/a/^f/ | ^fg{f} e4 | g3/2a/4_b/4 g4 | g/e/g/f/{f} g4 | f3/2g/4a/4{g} f4 | %314
 f/e/d/f/4e/4{e} f4 | e/d/d/c/ c/f/f/e/ e/a/a/g/ | g/_b/b/a/ a/^g/g/a/ a/f/f/e/ | %317
 e/^d/d/e/ e/<=d/c c/4B/4c/4B/4A | A2 A4 |[M:4/4]"^Bourree I"[Q:1/4=140] z4 z2 a2 | %320
 f/4e/4f/4e/4f/4e/4f/4e/4 de f2 ed | e2 A2 A2 a z | f/4e/4f/4e/4f/4e/4f/4e/4 de f2 ed | %323
 e2 dc d2 cd | e2 dc d2 cB | c2 Bc d2 cd | edce dcBc | dcBc AcBd | cBAe cBAe | cBAd cBAd | %330
 BAGd BAGd | BAGc BAGc | AG^Fc AGFc | AG^FB AGFB | A/4G/4A/4G/4A/4G/4A/4G/4 ^FG A2 GF | %335
 G^FEF GABF | GA^FG AGFA | GEGB GBeB | egeg ag^fe | ^fe^db fedb | g^feb gfeb | ^d^cBb dcBd | %342
 e2 ^f2 B2 e/4^d/4e/4d/4e/4d/4e/4d/4 | e6 a2 | f/4e/4f/4e/4f/4e/4f/4e/4 de f2 ed | e2 A2 A2 a z | %346
 f/4e/4f/4e/4f/4e/4f/4e/4 de f2 ed | e2 dc d2 cd | e2 dc d2 cB | c2 Bc d2 cd | edce dcBc | %351
 dcBc AcBd | cBAe cBAe | cBAd cBAd | BAGd BAGd | BAGc BAGc | AG^Fc AGFc | AG^FB AGFB | %358
 A/4G/4A/4G/4A/4G/4A/4G/4 ^FG A2 GF | G^FEF GABF | GA^FG AGFA | GEGB GBeB | egeg ag^fe | %363
 ^fe^db fedb | g^feb gfeb | ^d^cBb dcBd | e2 ^f2 B2 e/4^d/4e/4d/4e/4d/4e/4d/4 | e6 B2 | %368
 c/4B/4c/4B/4c/4B/4c/4B/4 AB c2 Bc | d2 cB A^G f2 | e2 e/4d/4e/4d/4c d2 d/4c/4d/4c/4B | dcBc ABcd | %372
 efde fgef | gagf ed^c_b | agfa gfef | gfef dfeg | feda fedc | _BAGd BAGf | edcg edc_B | %379
 AGFc AGFA | _Bcdf efg=B | ^cdeg fgac | %382
 d2- d/e/4d/4c/4d/4e/ f/4e/4f/4e/4f/4e/4f/4e/4 f/4e/4f/4e/4 d | d6 de | f2 de f2 ed | e2 dc d2 cd | %386
 e2 dc d2 cB | c2 Bc d2 cB | c2 c/4B/4c/4B/4A B2 AB | c2 c/4B/4c/4B/4A B2 B/4A/4B/4A/4^G | %390
 A2 fe dcBA | ^GABG E2 B2 | cdeA ^cdeA | defA ^de^fA | e^fgB ef^gB | fgac ^fgac | gabd ^gabe | %397
 abc'^g aefd | e3 f c/4B/4c/4B/4c/4B/4c/4B/4 c/4B/4c/4B/4 A | A6 B2 | %400
 c/4B/4c/4B/4c/4B/4c/4B/4 AB c2 Bc | d2 cB A^G f2 | e2 e/4d/4e/4d/4c d2 d/4c/4d/4c/4B | dcBc ABcd | %404
 efde fgef | gagf ed^c_b | agfa gfef | gfef dfeg | feda fedc | _BAGd BAGf | edcg edc_B | %411
 AGFc AGFA | _Bcdf efg=B | ^cdeg fgac | %414
 d2- d/e/4d/4c/4d/4e/ f/4e/4f/4e/4f/4e/4f/4e/4 f/4e/4f/4e/4 d | d6 de | f2 de f2 ed | e2 dc d2 cd | %418
 e2 dc d2 cB | c2 Bc d2 cB | c2 c/4B/4c/4B/4A B2 AB | c2 c/4B/4c/4B/4A B2 B/4A/4B/4A/4^G | %422
 A2 fe dcBA | ^GABG E2 B2 | cdeA ^cdeA | defA ^de^fA | e^fgB ef^gB | fgac ^fgac | gabd ^gabe | %429
 abc'^g aefd | e3 f c/4B/4c/4B/4c/4B/4c/4B/4 c/4B/4c/4B/4 A |[M:3/4] A6 |[M:1/4]"^Bourree II" E2 | %433
[M:4/4] E2 ^F2 GFED | E2 A^G A2 E2 | ^FD^CD EDCB, | D^CB,C A,2 E2 | E2 ^F2 GFED | E2 A^G A^c B2 | %439
 B4 A^G^FE | E6 E2 | E2 ^F2 GFED | E2 A^G A2 E2 | ^FD^CD EDCB, | D^CB,C A,2 E2 | E2 ^F2 GFED | %446
 E2 A^G A^c B2 | B4 A^G^FE | E6 ^G2 | ^G2 A2 BAG^F | A^G^FG E2 A2 | ^F^EFA ^GABF | %452
 ^G^E^F^D E^C ^c2 | ^cdec dBc^A | B^cdB cAB^G | ^cBdc BA^GA |{^G} ^F6 A2 | A6 A2 | A^GA^F GE =G2 | %459
 G6 G2 | G^FGE FD B2 | B2 ^c2 dcBA | B2 ed e2 ^G2 | A3 B ^c/4B/4c/4B/4c/4B/4c/4B/4 c/4B/4c/4B/4 A | %464
 A6 ^G2 | ^G2 A2 BAG^F | A^G^FG E2 A2 | ^F^EFA ^GABF | ^G^E^F^D E^C ^c2 | ^cdec dBc^A | %470
 B^cdB cAB^G | ^cBdc BA^GA |{^G} ^F6 A2 | A6 A2 | A^GA^F GE =G2 | G6 G2 | G^FGE FD B2 | %477
 B2 ^c2 dcBA | B2 ed e2 ^G2 | A3 B ^c/4B/4c/4B/4c/4B/4c/4B/4 c/4B/4c/4B/4 A |[M:3/4] A6 | %481
[M:1/4]"^Bourree I da capo" a2 |[M:4/4] f/4e/4f/4e/4f/4e/4f/4e/4 de f2 ed | e2 A2 A2 a z | %484
 f/4e/4f/4e/4f/4e/4f/4e/4 de f2 ed | e2 dc d2 cd | e2 dc d2 cB | c2 Bc d2 cd | edce dcBc | %489
 dcBc AcBd | cBAe cBAe | cBAd cBAd | BAGd BAGd | BAGc BAGc | AG^Fc AGFc | AG^FB AGFB | %496
 A/4G/4A/4G/4A/4G/4A/4G/4 ^FG A2 GF | G^FEF GABF | GA^FG AGFA | GEGB GBeB | egeg ag^fe | %501
 ^fe^db fedb | g^feb gfeb | ^d^cBb dcBd | e2 ^f2 B2 e/4^d/4e/4d/4e/4d/4e/4d/4 | e6 B2 | %506
 c/4B/4c/4B/4c/4B/4c/4B/4 AB c2 Bc | d2 cB A^G f2 | e2 e/4d/4e/4d/4c d2 d/4c/4d/4c/4B | dcBc ABcd | %510
 efde fgef | gagf ed^c_b | agfa gfef | gfef dfeg | feda fedc | _BAGd BAGf | edcg edc_B | %517
 AGFc AGFA | _Bcdf efg=B | ^cdeg fgac | %520
 d2- d/e/4d/4c/4d/4e/ f/4e/4f/4e/4f/4e/4f/4e/4 f/4e/4f/4e/4 d | d6 de | f2 de f2 ed | e2 dc d2 cd | %524
 e2 dc d2 cB | c2 Bc d2 cB | c2 c/4B/4c/4B/4A B2 AB | c2 c/4B/4c/4B/4A B2 B/4A/4B/4A/4^G | %528
 A2 fe dcBA | ^GABG E2 B2 | cdeA ^cdeA | defA ^de^fA | e^fgB ef^gB | fgac ^fgac | gabd ^gabe | %535
 abc'^g aefd | e3 f c/4B/4c/4B/4c/4B/4c/4B/4 c/4B/4c/4B/4 A | A6 z2 |[M:6/8]"^Gigue" z4 z E | %539
 A2 A ABc | BDB EFD | CEA DBA | ^GAB Eed | cde Afe | def Bgf | efg a/4g/4a/4g/4fg | aAB cde | %547
 fga b/4a/4b/4a/4ga | bBc def | gab c'/4b/4c'/4b/4ab | c'cd efg | aBc def | gAB cde | fga def | %554
 Bcd GAB | c2 c cBc | dFd EFD | CEG EGc | GBd Bdg | gec _BAG | A3 z2 A | fdB AGF | G3 z2 G | %563
 ecA GFE | dBG FED | EGc ^Fdc | Bcd G2 d | efg GAB | cde Bcd | efg GAB | cde Bcd | %571
 efg f/4e/4f/4e/4dc | cGE C2 E | A2 A ABc | BDB EFD | CEA DBA | ^GAB Eed | cde Afe | def Bgf | %579
 efg a/4g/4a/4g/4fg | aAB cde | fga b/4a/4b/4a/4ga | bBc def | gab c'/4b/4c'/4b/4ab | c'cd efg | %585
 aBc def | gAB cde | fga def | Bcd GAB | c2 c cBc | dFd EFD | CEG EGc | GBd Bdg | gec _BAG | %594
 A3 z2 A | fdB AGF | G3 z2 G | ecA GFE | dBG FED | EGc ^Fdc | Bcd G2 d | efg GAB | cde Bcd | %603
 efg GAB | cde Bcd | efg f/4e/4f/4e/4dc | cGE C2 G | c2 c cde | dFd GAF | EcE DEC | B,CD G,2 D | %611
 E^FG ABc | ^D2 c B3 | DE^F ^GAB | ^C2 B A3 | CDE ^FGA | B,2 A G3 | A,2 G ^F3 | G,2 ^F E^DE | %619
 ^DE^F B,BA | GAB EcB | ABc ^Fdc | Bcd Ged | ^c^de A^fe | ^de^f g/4f/4g/4f/4ef | gGA B^c^d | %626
 e^fg a/4g/4a/4g/4fg | aAB ^c^de | ^fga b/4a/4b/4a/4ga | b^c^d e^fg | aB^c ^de^f | gab Be^d | %632
 e3 z2 e | e^cA GFE | FDF AFA | dBG FED | ECE GEG | cAF EDC | B^GE DCB, | CEA DBA | ^GAB E2 B | %641
 cde E^F^G | ABc ^GAB | cde E^F^G | ABc ^GAB | cde cBA | AEC A,2 G | c2 c cde | dFd GAF | EcE DEC | %650
 B,CD G,2 D | E^FG ABc | ^D2 c B3 | DE^F ^GAB | ^C2 B A3 | CDE ^FGA | B,2 A G3 | A,2 G ^F3 | %658
 G,2 ^F E^DE | ^DE^F B,BA | GAB EcB | ABc ^Fdc | Bcd Ged | ^c^de A^fe | ^de^f g/4f/4g/4f/4ef | %665
 gGA B^c^d | e^fg a/4g/4a/4g/4fg | aAB ^c^de | ^fga b/4a/4b/4a/4ga | b^c^d e^fg | aB^c ^de^f | %671
 gab Be^d | e3 z2 e | e^cA GFE | FDF AFA | dBG FED | ECE GEG | cAF EDC | B^GE DCB, | CEA DBA | %680
 ^GAB E2 B | cde E^F^G | ABc ^GAB | cde E^F^G | ABc ^GAB | cde cBA | AEC A,2 E | A2 A ABc | %688
 BDB EFD | CEA DBA | ^GAB Eed | cde Afe | def Bgf | efg a/4g/4a/4g/4fg | aAB cde | %695
 fga b/4a/4b/4a/4ga | bBc def | gab c'/4b/4c'/4b/4ab | c'cd efg | aBc def | gAB cde | fga def | %702
 Bcd GAB | c2 c cBc | dFd EFD | CEG EGc | GBd Bdg | gec _BAG | A3 z2 A | fdB AGF | G3 z2 G | %711
 ecA GFE | dBG FED | EGc ^Fdc | Bcd G2 d | efg GAB | cde Bcd | efg GAB | cde Bcd | %719
 efg f/4e/4f/4e/4dc | cGE C2 G | c2 c cde | dFd GAF | EcE DEC | B,CD G,2 D | E^FG ABc | ^D2 c B3 | %727
 DE^F ^GAB | ^C2 B A3 | CDE ^FGA | B,2 A G3 | A,2 G ^F3 | G,2 ^F E^DE | ^DE^F B,BA | GAB EcB | %735
 ABc ^Fdc | Bcd Ged | ^c^de A^fe | ^de^f g/4f/4g/4f/4ef | gGA B^c^d | e^fg a/4g/4a/4g/4fg | %741
 aAB ^c^de | ^fga b/4a/4b/4a/4ga | b^c^d e^fg | aB^c ^de^f | gab Be^d | e3 z2 e | e^cA GFE | %748
 FDF AFA | dBG FED | ECE GEG | cAF EDC | B^GE DCB, | CEA DBA | ^GAB E2 B | cde E^F^G | ABc ^GAB | %757
 cde E^F^G | ABc ^GAB | cde cBA | AEC A,2 z |] %761
V:2
 z6 | z E A,A G/E/F/D/ | EE, ^G,B, G,E, | A,E, A,,A, G,/E,/F,/D,/ | %4
 E,/D,/B,,/^G,,/ D,/B,,/G,,/B,,/ E,,/D,/C,/B,,/ | ^C,A,, C,E, C,A,, | %6
 D,/C/A,/^F,/ C/A,/F,/A,/ D,/C/B,/A,/ | B,G, B,D B,G, | CG, C,C B,/G,/A,/^F,/ | G,F, E,D, E,C, | %10
 F,E, D,C, D,B,, | E,D, ^C,B,, C,A,, | D,C, B,,A,, B,,G,, | C,G,, C,,C, B,,/^G,,/A,,/^F,,/ | %14
 ^G,,E,, G,,B,, G,,E,, | A,,A,, ^C,E, C,A,, | D,F,/E,/ ^D,^F, D,B,, | E,,E, ^G,B, G,E, | %18
 z/ D/C/B,/ C/B,/C/E/ ^C/E/D/^E/ | ^G,B, E,E D/B,/C/A,/ | B,A, ^G,A, B,^B, | DD, C,C B,E, | %22
 A,,A,- A,/G,/^E,/=E,/ D,/^B,,/D,/D,,/ | G,,G,- G,/^E,/=E,/D,/ C,/_B,,/C,/C,,/ | %24
 F,,A,, D,,D,/C,/ B,,/^G,,/A,,/^F,,/ | ^G,,2 z B,, G,,E,, | A,,2 z C, B,,A,, | E,2 z E, ^F,^G, | %28
 A,>^G, A,/E,/F,/D,/ E,/C,/D,/B,,/ | C,/D,/E,/B,,/ C,D, C,B,, | %30
 A,,>^G,, A,,/E,,/B,,/E,,/ C,/E,,/D,/E,,/ | E,E,, z4 | A,>G, A,/E,/B,/E,/ C/E,/D/E,/ | EE, z4 | %34
[I:staff -1] A>^G A/E/B/E/ c/E/d/E/ | eE eE dE | cE dE cE | BE cE BE | AE BE AE | %39
 ^GE[I:staff +1] z E/C/ D/B,/C/A,/ | B,/A,/B,/D/ ^G,/^F,/G,/B,/ =F,/E,/F,/A,/ | %41
 D,/C,/D,/F,/ B,,/A,,/B,,/D,/ ^G,,/^F,,/G,,/B,,/ | E,,2 z4 | E,,2 z4 | E,,2 z4 | z4 E,/D,/C,/B,,/ | %46
 z2 z C DB, | CC, z D CB, | A,2 z C B,A, | ^G,E, z A, A,G, | A,E, A,,A, G,/E,/F,/D,/ | %51
 E,/D,/C,/E,/ A,,/C,/F,/D,/ E,/C,/D,/B,,/ | C,/B,,/A,,/C,/ E,,/A,,/E,/C,/ D,/B,,/C,/A,,/ | %53
 B,,/A,,/B,,/^G,,/ A,,D, E,E,, | A,,2 z/ A,,/C,/E,/ A,/G,/^E,/=E,/ | %55
 D,2 z/ G,,/B,,/D,/ G,/F,/E,/D,/ | C,2 z/ C,/E,/G,/ C/B,/A,/G,/ | %57
 ^F,2 z/ B,,/^D,/F,/ B,/A,/G,/F,/ | E,/^D,/E,/^F,/ G,/F,/G,/A,/ B,/G,/A,/^E,/ | %59
 G,B, E,E D/B,/C/A,/ | B,B,, ^D,^F, D,B,, | E,E,, z/ E,,/G,,/B,,/ E,/D,/C,/B,,/ | %62
 A,,2 z/ D,,/^F,,/A,,/ D,/C,/B,,/A,,/ | G,,2 z/ G,,/B,,/D,/ G,/^F,/E,/D,/ | %64
 ^C,2 z/ ^F,,/^A,,/C,/ ^F,/E,/D,/C,/ | B,,2 z/ B,,/D,/^F,/ B,/A,/^G,/F,/ | E,E,, ^G,,B,, G,,E,, | %67
 A,,2 z/ A,,/C,/E,/ A,/G,/^F,/E,/ | D,D,, ^F,,A,, F,,D,, | G,,G, G,/A,/G, G,G, | %70
 A,,G, G,/A,/G, G,G, | B,,G, G,/A,/G, G,G, | ^B,,G, G,/A,/G, G,G, | ^B,,A, A,/B,/A, A,A, | %74
 D,A, A,/B,/A, A,A, | D,B, B,/C/B, B,B, | D,^C C/D/C CC | D,D/=C/ B,A, B,G, | %78
 ^B,,C/B,/ A,G, A,^F, | B,/B,,/D,/^F,/ B,/F,/^G,/E,/ B,/F,/G,/E,/ | %80
 A,/A,,/C,/E,/ A,/E,/^F,/D,/ A,/E,/F,/D,/ | G,B, E,E D/B,/C/A,/ | B,2 z4 | B,,2 z4 | B,,2 z4 | %85
 z B,, ^D,^F, D,B,, | E,,2 z E, ^F,D, | G,G,, z A, G,^F, | E,2 z G, ^F,E, | ^D,B,, C,A,, B,,B,, | %90
 E,,B, E,E D/B,/C/A,/ | B,/A,/G,/B,/ E,/G,/C/A,/ B,/G,/A,/^F,/ | %92
 G,/^F,/E,/G,/ B,,/E,/B,/G,/ A,/F,/G,/E,/ | ^F,/E,/F,/^D,/ E,A, B,B,, | %94
 E,2 z/ E,,/G,,/B,,/ E,/D,/^C,/B,,/ | A,,2 z/ A,,/^C,/E,/ A,/G,/F,/E,/ | %96
 D,2 z/ D,,/F,,/A,,/ D,/C,/B,,/A,,/ | G,,2 z/ G,,/B,,/D,/ G,/^E,/=E,/D,/ | C,C, C,/D,/C, C,C, | %99
 D,,C, C,/D,/C, C,C, | E,,C, C,/D,/C, C,C, | F,,C, C,/D,/C, C,C, | F,,D, D,/E,/D, D,D, | %103
 G,,D, D,/E,/D, D,D, | G,,E, E,/F,/E, E,E, | G,,^F, ^E,/G,/F, F,F, | G,,2 z2 F,/D,/B,,/G,,/ | %107
 z2 ^F,,2 z =F,, | E,,F,, G,,F,, G,,2 | C,, z z4 | %110
 z[I:staff -1] E[I:staff +1]A,[I:staff -1]A G/E/F/D/ | E[I:staff +1]E, ^G,B, G,E, | %112
 A,E, A,,A, G,/E,/F,/D,/ | E,/D,/B,,/^G,,/ D,/B,,/G,,/B,,/ E,,/D,/C,/B,,/ | ^C,A,, C,E, C,A,, | %115
 D,/C/A,/^F,/ C/A,/F,/A,/ D,/C/B,/A,/ | B,G, B,D B,G, | CG, C,C B,/G,/A,/^F,/ | G,F, E,D, E,C, | %119
 F,E, D,C, D,B,, | E,D, ^C,B,, C,A,, | D,C, B,,A,, B,,G,, | C,G,, C,,C, B,,/^G,,/A,,/^F,,/ | %123
 ^G,,E,, G,,B,, G,,E,, | A,,A,, ^C,E, C,A,, | D,F,/E,/ ^D,^F, D,B,, | E,,E, ^G,B, G,E, | %127
 z/ D/C/B,/ C/B,/C/E/ ^C/E/D/^E/ | ^G,B, E,E D/B,/C/A,/ | B,A, ^G,A, B,C | DD, C,C B,E, | %131
 A,,A,- A,/G,/F,/E,/ D,/C,/D,/D,,/ | G,,G,- G,/F,/E,/D,/ C,/_B,,/C,/C,,/ | %133
 F,,A,, D,,D,/C,/ B,,/^G,,/A,,/^F,,/ | ^G,,2 z B,, G,,E,, | A,,2 z C, B,,A,, | E,2 z E, ^F,^G, | %137
 A,>^G, A,/E,/F,/D,/ E,/C,/D,/B,,/ | C,/D,/E,/B,,/ C,D, C,B,, | %139
 A,,>^G,, A,,/E,,/B,,/E,,/ C,/E,,/D,/E,,/ | E,E,, z4 | A,>^G, A,/E,/B,/E,/ C/E,/D/E,/ | EE, z4 | %143
[I:staff -1] A>^G A/E/B/E/ c/E/d/E/ | eE eE dE | cE dE cE | BE cE BE | AE BE AE | %148
 ^GE[I:staff +1] z E/C/ D/B,/C/A,/ | B,/A,/B,/D/ ^G,/^F,/G,/B,/ =F,/E,/F,/A,/ | %150
 D,/C,/D,/F,/ B,,/A,,/B,,/D,/ ^G,,/^F,,/G,,/B,,/ | E,,2 z4 | E,,2 z4 | E,,2 z4 | z4 E,/D,/C,/B,,/ | %155
 A,,2 z A, B,G, | CC, z D CB, | A,2 z C B,A, | ^G,E, ^E,D, =E,E, | A,E, A,,A, G,/E,/F,/D,/ | %160
 E,/D,/C,/E,/ A,,/C,/F,/D,/ E,/C,/D,/B,,/ | C,/B,,/A,,/C,/ E,,/A,,/E,/C,/ D,/B,,/C,/A,,/ | %162
 B,,/A,,/B,,/^G,,/ A,,D, E,E,, | A,,6 |[M:4/4] z4 z2 z z/ z/ | A,8- | %166
 A,>[I:staff -1]E A/^G/A/B/ D/F/E/F/- F/F/E/D/ |[I:staff +1] C/B,/A,/B,/ ^C/D/E/C/ DA, D>^B, | %168
 B,/A,/G,/A,/ B,/C/D/B,/ C4- | C/E/D/C/ B,/D/C/D/ ^G,/A,/B,/G,/ D,/F,/E,/D,/ | %170
 C,2- C,/C,/B,,/A,,/ E,>B, E/^D/E/^F/ | A,/C/B,/C/ ^D,/C/B,/A,/ G,2- G,/G,/^F,/E,/ | %172
 ^F,/F,/G,/A,/ B,B,, E,/4D,/4E,3/2- E,/D,/C,/B,,/ | A,,/G,,/A,,/B,,/ C,/B,,/C,/A,,/ z ^F,B,G, | %174
 E,G,^C,^A, B,>=A, G,/E,/^F,/G,/ | C,>B,, C,/A,,/B,,/C,/ ^D,,E,, B,,2 | %176
 z z/ ^G,/ A,/B,/C/^D/ E2 E,3/2 z/ | A,8- | A,>[I:staff -1]E A/^G/A/B/ D/F/E/F/- F/F/E/D/ | %179
[I:staff +1] C/B,/A,/B,/ ^C/D/E/C/ DA, D>^B, | B,/A,/G,/A,/ B,/C/D/B,/ C4- | %181
 C/E/D/C/ B,/D/C/D/ ^G,/A,/B,/G,/ D,/F,/E,/D,/ | C,2- C,/C,/B,,/A,,/ E,>B, E/^D/E/^F/ | %183
 A,/C/B,/C/ ^D,/C/B,/A,/ G,2- G,/G,/^F,/E,/ | ^F,/F,/G,/A,/ B,B,, E,/4D,/4E,3/2- E,/D,/C,/B,,/ | %185
 A,,/G,,/A,,/B,,/ C,/B,,/C,/A,,/ z ^F,B,G, | E,G,^C,^A, B,>=A, G,/E,/^F,/G,/ | %187
 C,>B,, C,/A,,/B,,/C,/ ^D,,E,, B,,2 | z z/ ^G,/ A,/B,/C/^D/ E2 E,3/2 z/ | %189
 E,,/B,,/E,/^F,/ ^G,A, B,A,G,E, | A,>A,, G,,/_B,,/A,,/G,,/ ^C,/A,,/B,,/A,,/ E,/G,,/A,,/B,,/ | %191
 ^F,,/D,/E,/^F,/ G,/A,/B,/4A,/4G,/4A,/4 B,/C/D/4C/4B,/4C/4 D>D, | G,,/D,/G,/A,/ B,C DC B,A,, | %193
 ^G,A, G,^F, E,D, C,B,, | A,,>A, _B,/A,/B,/G,/ ^C/A,/D/G,/ A,A,, | %195
 D,2- D,/D,/E,/F,/ G,/G,/A,/B,/ C/C/D/E/ | F2- F/B,,/C,/D,/ E,/E,/^F,/^G,/ A,/A,/B,/C/ | %197
 D2- D/F,/E,/D,/ ^G,/E,/F,/E,/ A,/D,/E,/F,/ | ^G,,/G,,/A,,/B,,/ C,/C,/D,/E,/ F,2- F,/D,/E,/F,/ | %199
 B,,/B,,/C,/D,/ ^G,,/G,,/A,,/B,,/ C,,C,/D,/ E,E,, | z z/ ^C,/ D,/E,/F,/^G,/ A,2 A,3/2 z/ | %201
 E,,/B,,/E,/^F,/ ^G,A, B,A,G,E, | A,>A,, G,,/_B,,/A,,/G,,/ ^C,/A,,/B,,/A,,/ E,/G,,/A,,/B,,/ | %203
 ^F,,/D,/E,/^F,/ G,/A,/B,/4A,/4G,/4A,/4 B,/C/D/4C/4B,/4C/4 D>D, | G,,/D,/G,/A,/ B,C DC B,A,, | %205
 ^G,A, G,^F, E,D, C,B,, | A,,>A, _B,/A,/B,/G,/ ^C/A,/D/G,/ A,A,, | %207
 D,2- D,/D,/E,/F,/ G,/G,/A,/B,/ C/C/D/E/ | F2- F/B,,/C,/D,/ E,/E,/^F,/^G,/ A,/A,/B,/C/ | %209
 D2- D/F,/E,/D,/ ^G,/E,/F,/E,/ A,/D,/E,/F,/ | ^G,,/G,,/A,,/B,,/ C,/C,/D,/E,/ F,2- F,/D,/E,/F,/ | %211
 B,,/B,,/C,/D,/ ^G,,/G,,/A,,/B,,/ C,,C,/D,/ E,E,, | z z/ ^C,/ D,/E,/F,/^G,/ A,2 A,3/2 z/ | %213
[M:3/2] z8 z2 z z | A,2 E,2 A,,2 A,2 ^G,2 E,2 | A,A,,A,B, CDEF EDCB, | C3 ^C D2 B,2 =C2 D2 | %217
 E3 E DCB,D CB,CD | ^G,B,A,G, ^F,E,A,=G, =F,E,F,G, | C,F,E,D, C,_B,,A,,C, B,,A,,B,,C, | %220
 F,,2 F,G, A,G,F,E, D,C,B,,A,, | B,,G,,A,,B,, C,D,E,F, G,2 G,,2 | z G, C2 E,2 F,2 G,2 A,2 | %223
 B,CDC B,A,G,F, E,C,D,E, | F,E,F,G, A,2 F,2 G,2 G,,2 | C,4 G,,2 C,4- C, z | %226
 A,2 E,2 A,,2 A,2 ^G,2 E,2 | A,A,,A,B, CDEF EDCB, | C3 ^C D2 B,2 =C2 D2 | E3 E DCB,D CB,CD | %230
 ^G,B,A,G, ^F,E,A,=G, =F,E,F,G, | C,F,E,D, C,_B,,A,,C, B,,A,,B,,C, | %232
 F,,2 F,G, A,G,F,E, D,C,B,,A,, | B,,G,,A,,B,, C,D,E,F, G,2 G,,2 | z G, C2 E,2 F,2 G,2 A,2 | %235
 B,CDC B,A,G,F, E,C,D,E, | F,E,F,G, A,2 F,2 G,2 G,,2 | C,4 G,,2 C,4- C, z | %238
 C,2 D,2 E,2 C,2 D,2 B,,2 | E,D,F,E, D,C,B,,A,, ^G,,^F,,G,,E,, | A,,^G,,A,,B,, C,D,E,F, G,A,_B,G, | %241
 A,G,_B,A, G,F,E,D, ^C,B,,C,A,, | D,2 _B,2 F,2 G,2 A,2 A,,2 | D,,2 A,G, F,E,D,C, B,,A,,G,,F,, | %244
 E,,G,,A,,B,, C,D,E,^F, G,F,E,D, | G,2 F,2 E,2 D,2 C,2 A,,2 | D,2 E,2 D,2 C,2 B,,2 C,D, | %247
 E,D,F,E, D,C,B,,A,, D,2 E,2 | F,^C,D,A, ^G,E,A,D, E,2 E,,2 | z2 C,2 E,2 A,4- A, z | %250
 C,2 D,2 E,2 C,2 D,2 B,,2 | E,D,F,E, D,C,B,,A,, ^G,,^F,,G,,E,, | A,,^G,,A,,B,, C,D,E,F, G,A,_B,G, | %253
 A,G,_B,A, G,F,E,D, ^C,B,,C,A,, | D,2 _B,2 F,2 G,2 A,2 A,,2 | D,,2 A,G, F,E,D,C, B,,A,,G,,F,, | %256
 E,,G,,A,,B,, C,D,E,^F, G,F,E,D, | G,2 F,2 E,2 D,2 C,2 A,,2 | D,2 E,2 D,2 C,2 B,,2 C,D, | %259
 E,D,F,E, D,C,B,,A,, D,2 E,2 | F,^C,D,A, ^G,E,A,D, E,2 E,,2 | z2 C,2 E,2 A,4- A, z | z12 | %263
[M:3/4] A,2 D,2 E,2 | F,2 E,D, C,B,, | !arpeggio!A,2 A,2 E,2 | E3 D CB, | A,2 A,,2 z2 | %268
 B,2 B,,2 z2 |[I:staff -1] G2[I:staff +1] C2 FE | D2 D4 | E,4 z2 | F,4 ^F,2 | z2 G,2 G,,2 | %274
 C,2 C,,4 | A,2 D,2 E,2 | F,2 E,D, C,B,, | !arpeggio!A,2 A,2 E,2 | E3 D CB, | A,2 A,,2 z2 | %280
 B,2 B,,2 z2 |[I:staff -1] G2[I:staff +1] C2 FE | D2 D4 | E,4 z2 | F,4 ^F,2 | %285
 z2 G,/4^F,/4G,3/2 G,,2 | C,2 C,,4 | C2 C2 G,2 | G,2 G,4 | A,2 B,2 B,2 | B,^C ^D2 z2 | %291
 E,2 E2 z E, | ^D,2 ^D2 z =D, | C,2 G,,2 B,,2 | E,,2 G,,2 B,,2 | E,2 F,2 G,2 | A,2 z4 | D2 z2 z2 | %298
 G,2 z4 | CB, A,G, F,E, | D,C, B,,A,, ^G,,A,, | ^F,,2 E,,2 E,2 | A,,C,/E,/ A,4 | C2 C2 G,2 | %304
 G,2 G,4 | ^F,,2 E,,2 E,2 | B,^C ^D2 z2 | E,2 E2 z E, | ^D,2 ^D2 z =D, | C,2 G,,2 B,,2 | %310
 E,,2 G,,2 B,,2 | E,2 F,2 G,2 | A,2 z4 | D2 z2 z2 | G,2 z4 | CB, A,G, F,E, | D,C, B,,A,, ^G,,A,, | %317
 ^F,,2 E,,2 E,2 | A,,C,/E,/ A,4 |[M:4/4] z4 z2 A,B, | CA,CA, DA,DA, | CA,DA, CA,B,A, | %322
 CA,CA, DA,DA, | CA,CA, B,A,B,A, | ^G,B,^F,B, G,B,E,G, | A,E,A,E, B,E,B,E, | CE,A,E, B,E,^G,E, | %327
 A,2 E,2 C,2 E,2 | A,,2 C,2 E,2 G,2 | ^F,2 A,2 D,2 F,2 | G,,2 B,,2 D,2 ^F,2 | E,2 G,2 C,2 E,2 | %332
 ^F,,2 A,,2 C,2 E,2 | ^D,2 ^F,2 B,,2 D,2 | E,B,,E,B,, ^D,B,,D,B,, | E,2 B,,2 E,,2 ^D,2 | %336
 E,B,,E,B,, ^D,B,,D,B,, | E,2 B,,2 E,2 G,2 | E,2 G,2 B,2 E2 | ^D2 B,2 D2 B,2 | E2 B,2 E,2 G,2 | %341
 A,2 G,2 A,2 ^F,2 | G,2 A,2 B,2 B,,2 | EFED CB, A,B, | CA,CA, DA,DA, | CA,DA, CA,B,A, | %346
 CA,CA, DA,DA, | CA,CA, B,A,B,A, | ^G,B,^F,B, G,B,E,G, | A,E,A,E, B,E,B,E, | CE,A,E, B,E,^G,E, | %351
 A,2 E,2 C,2 E,2 | A,,2 C,2 E,2 G,2 | ^F,2 A,2 D,2 F,2 | G,,2 B,,2 D,2 ^F,2 | E,2 G,2 C,2 E,2 | %356
 ^F,,2 A,,2 C,2 E,2 | ^D,2 ^F,2 B,,2 D,2 | E,B,,E,B,, ^D,B,,D,B,, | E,2 B,,2 E,,2 ^D,2 | %360
 E,B,,E,B,, ^D,B,,D,B,, | E,2 B,,2 E,2 G,2 | E,2 G,2 B,2 E2 | ^D2 B,2 D2 B,2 | E2 B,2 E,2 G,2 | %365
 A,2 G,2 A,2 ^F,2 | G,2 A,2 B,2 B,,2 | E,2 B,,2 E,,2 E,^F, | ^G,E,G,E, A,E,A,E, | B,E,B,E, CE,DE, | %370
 CE,A,E, B,E,^G,E, | A,2 E,2 A,,E,A,B, | ^CA,CA, DA,DA, | EA,EA, FA,GA, | FA,DA, EA,^CA, | %375
 D2 A,2 F,2 A,2 | D,2 D,,2 E,,2 F,,2 | G,,2 G,2 A,2 _B,2 | C2 C,,2 D,,2 E,,2 | F,,2 C,2 F,2 D,2 | %380
 G,2 F,2 G,2 E,2 | A,2 G,2 A,2 F,2 | _B,2 G,2 A,2 A,,2 | D,E,F,E, D,C,B,,A,, | %384
 G,,A,,B,,C, D,E,F,G, | C,CB,A, G,F,E,D, | C,CB,A, ^G,B,A,G, | A,E,^G,A, B,E,^F,G, | %388
 A,A^G^F EDCB, | A,G,F,E, D,C,D,E, | F,2 E,2 F,2 D,2 | E,4- E,D,C,B,, | A,,2 A,4 G,2 | %393
 F,2 D,2 B,2 A,2 | G,2 E,2 E4- | E2 DC DB,CA, | B,2 F2 E2 D2 | CB,A,B, CA,DB, | C^G,A,D, E,2 E,,2 | %399
 z2 E,2 A,2 E,^F, | ^G,E,G,E, A,E,A,E, | B,E,B,E, CE,DE, | CE,A,E, B,E,^G,E, | A,2 E,2 A,,E,A,B, | %404
 ^CA,CA, DA,DA, | EA,EA, FA,GA, | FA,DA, EA,^CA, | D2 A,2 F,2 A,2 | D,2 D,,2 E,,2 F,,2 | %409
 G,,2 G,2 A,2 _B,2 | C2 C,,2 D,,2 E,,2 | F,,2 C,2 F,2 D,2 | G,2 F,2 G,2 E,2 | A,2 G,2 A,2 F,2 | %414
 _B,2 G,2 A,2 A,,2 | D,E,F,E, D,C,B,,A,, | G,,A,,B,,C, D,E,F,G, | C,CB,A, G,F,E,D, | %418
 C,CB,A, ^G,B,A,G, | A,E,^G,A, B,E,^F,G, | A,A^G^F EDCB, | A,G,F,E, D,C,D,E, | F,2 E,2 F,2 D,2 | %423
 E,4- E,D,C,B,, | A,,2 A,4 G,2 | F,2 D,2 B,2 A,2 | G,2 E,2 E4- | E2 DC DB,CA, | B,2 F2 E2 D2 | %429
 CB,A,B, CA,DB, | C^G,A,D, E,2 E,,2 |[M:3/4] z2 E,2 A,2 |[M:1/4] ^C2 |[M:4/4] ^C2 D2 EDCB, | %434
 ^C2 CB, C2 C2 | B,8 | A,6 A,2 | ^C2 D2 EDCB, | ^C6[I:staff -1] ^D2 | %439
[I:staff +1] A,^G,^F,E, B,2 B,,2 | E,2 B,,2 E,,2 ^C2 | ^C2 D2 EDCB, | ^C2 CB, C2 C2 | B,8 | %444
 A,6 A,2 | ^C2 D2 EDCB, | ^C6[I:staff -1] ^D2 |[I:staff +1] A,^G,^F,E, B,2 B,,2 | %448
[I:staff -1] E6[I:staff +1] B,2 | B,2 ^C2 DCB,A, | ^CB,A,B, ^G,2[I:staff -1] E2 | %451
[I:staff +1] A,4 B,2 ^F,2 | ^E,2 A,2 ^G,2 B,2 | ^A,2 ^C2 B,2 E2 | D2 B,2 A,2 ^G,2 | %455
 A,2 ^G,2 ^F,2 ^E,2 | ^F,2 z2 z2 F,2 | ^D,2 ^F,E, F,2 F,2 | E,6 E,2 | ^C,2 E,D, E,2 E,2 | %460
 D,6 ^F,2 | E,4 E,2 ^F,2 | ^G,6 B,2 | A,4 E,4 | z2 z E, A,2 B,2 | B,2 ^C2 DCB,A, | %466
 ^CB,A,B, ^G,2[I:staff -1] E2 |[I:staff +1] A,4 B,2 ^F,2 | ^E,2 A,2 ^G,2 B,2 | ^A,2 ^C2 B,2 E2 | %470
 D2 B,2 A,2 ^G,2 | A,2 ^G,2 ^F,2 ^E,2 | ^F,2 z2 z2 F,2 | ^D,2 ^F,E, F,2 F,2 | E,6 E,2 | %475
 ^C,2 E,D, E,2 E,2 | D,6 ^F,2 | E,4 E,2 ^F,2 | ^G,6 B,2 | A,4 E,4 |[M:3/4] z2 z E, A,2 | %481
[M:1/4] A,B, |[M:4/4] CA,CA, DA,DA, | CA,DA, CA,B,A, | CA,CA, DA,DA, | CA,CA, B,A,B,A, | %486
 ^G,B,^F,B, G,B,E,G, | A,E,A,E, B,E,B,E, | CE,A,E, B,E,^G,E, | A,2 E,2 C,2 E,2 | A,,2 C,2 E,2 G,2 | %491
 ^F,2 A,2 D,2 F,2 | G,,2 B,,2 D,2 ^F,2 | E,2 G,2 C,2 E,2 | ^F,,2 A,,2 C,2 E,2 | %495
 ^D,2 ^F,2 B,,2 D,2 | E,B,,E,B,, ^D,B,,D,B,, | E,2 B,,2 E,,2 ^D,2 | E,B,,E,B,, ^D,B,,D,B,, | %499
 E,2 B,,2 E,2 G,2 | E,2 G,2 B,2 E2 | ^D2 B,2 D2 B,2 | E2 B,2 E,2 G,2 | A,2 G,2 A,2 ^F,2 | %504
 G,2 A,2 B,2 B,,2 | E,2 B,,2 E,,2 E,^F, | ^G,E,G,E, A,E,A,E, | B,E,B,E, CE,DE, | %508
 CE,A,E, B,E,^G,E, | A,2 E,2 A,,E,A,B, | ^CA,CA, DA,DA, | EA,EA, FA,GA, | FA,DA, EA,^CA, | %513
 D2 A,2 F,2 A,2 | D,2 D,,2 E,,2 F,,2 | G,,2 G,2 A,2 _B,2 | C2 C,,2 D,,2 E,,2 | F,,2 C,2 F,2 D,2 | %518
 G,2 F,2 G,2 E,2 | A,2 G,2 A,2 F,2 | _B,2 G,2 A,2 A,,2 | D,E,F,E, D,C,B,,A,, | %522
 G,,A,,B,,C, D,E,F,G, | C,CB,A, G,F,E,D, | C,CB,A, ^G,B,A,G, | A,E,^G,A, B,E,^F,G, | %526
 A,A^G^F EDCB, | A,G,F,E, D,C,D,E, | F,2 E,2 F,2 D,2 | E,4- E,D,C,B,, | A,,2 A,4 G,2 | %531
 F,2 D,2 B,2 A,2 | G,2 E,2 E4- | E2 DC DB,CA, | B,2 F2 E2 D2 | CB,A,B, CA,DB, | C^G,A,D, E,2 E,,2 | %537
 z2 E,2 A,2 z2 |[M:6/8] z4 z z | A,,3 A,3- | A,3 ^G,3 | A,3 F,3 | E,3- E,^F,^G, | A,B,C F,G,A, | %544
 B,CD G,A,B, | CDE F/4E/4F/4E/4DE | FF,G, A,B,C | DEF G/4F/4G/4F/4EF | GG,A, B,CD | %549
 EFG A/4G/4A/4G/4FG | AA,B, CDE | FG,A, B,CD | EF,G, A,B,C | DEF B,CD | G,3 z2 F | EFG CDE | %556
 B,CD G,A,B, | E,F,G, C,D,E, | B,,C,D, G,,A,,B,, | E,,3 z2 E, | F,G,A, A,B,C | D,,3 z2 D, | %562
 E,F,G, G,A,B, | C,,3 C,3- | C,3 B,,3 | C,3 A,,3 | G,,3- G,,A,,B,, | C,D,E, B,,C,D, | %568
 E,F,G, G,A,B, | CDE B,CD |[I:staff -1] EFG GAB | c2 F G2[I:staff +1] G, | C,3- C,E,C, | %573
 A,,3 A,3- | A,3 ^G,3 | A,3 F,3 | E,3- E,^F,^G, | A,B,C F,G,A, | B,CD G,A,B, | CDE F/4E/4F/4E/4DE | %580
 FF,G, A,B,C | DEF G/4F/4G/4F/4EF | GG,A, B,CD | EFG A/4G/4A/4G/4FG | AA,B, CDE | FG,A, B,CD | %586
 EF,G, A,B,C | DEF B,CD | G,3 z2 F | EFG CDE | B,CD G,A,B, | E,F,G, C,D,E, | B,,C,D, G,,A,,B,, | %593
 E,,3 z2 E, | F,G,A, A,B,C | D,,3 z2 D, | E,F,G, G,A,B, | C,,3 C,3- | C,3 B,,3 | C,3 A,,3 | %600
 G,,3- G,,A,,B,, | C,D,E, B,,C,D, | E,F,G, G,A,B, | CDE B,CD |[I:staff -1] EFG GAB | %605
 c2 F G2[I:staff +1] G, | C,3- C,G,,E,, | C,,3 C,3- | C,3 B,,3 | C,3 F,,3 | G,,3- G,,A,,B,, | %611
 C,D,E, ^F,G,A, | B,,B,A, ^G,A,^F, | ^G,^F,E, D,C,B,, | A,,A,G, ^F,G,E, | ^F,E,D, C,B,,A,, | %616
 G,,G,^F, E,^D,E, | ^F,,^F,E, ^D,^C,D, | E,,E,D, C,B,,A,, | B,,3- B,,^C,^D, | E,^F,G, C,D,E, | %621
 ^F,G,A, D,E,F, | G,A,B, E,^F,G, | A,B,C ^F,G,A, | B,^C^D E/4D/4E/4D/4CD | EE,^F, G,A,B, | %626
 ^C^DE F/4E/4F/4E/4DE | ^F^F,G, A,B,^C | ^DE^F G/4F/4G/4F/4EF | GA,B, ^C^DE | ^FG,A, B,^C^D | %631
 E2 A, B,2 B,, | E,^F,G, G,A,_B, | ^C,3 z2 A,, | D,F,A, D2 C, | B,,3 z2 G,, | C,E,G, C2 B,, | %637
 A,,3 A,3- | A,3 ^G,3 | A,3 F,3 | E,3 E,,^F,,^G,, | A,,B,,C, ^G,,A,,B,, | C,D,E, E,^F,^G, | %643
 A,B,C ^G,A,B, |[I:staff -1] CDE E^F^G | A2 D E2[I:staff +1] E, | A,3- A,G,F, | E,F,G, C,3- | %648
 C,3 B,,3 | C,3 F,,3 | G,,3- G,,A,,B,, | C,D,E, ^F,G,A, | B,,B,A, ^G,A,^F, | ^G,^F,E, D,C,B,, | %654
 A,,A,G, ^F,G,E, | ^F,E,D, C,B,,A,, | G,,G,^F, E,^D,E, | ^F,,^F,E, ^D,^C,D, | E,,E,D, C,B,,A,, | %659
 B,,3- B,,^C,^D, | E,^F,G, C,D,E, | ^F,G,A, D,E,F, | G,A,B, E,^F,G, | A,B,C ^F,G,A, | %664
 B,^C^D E/4D/4E/4D/4CD | EE,^F, G,A,B, | ^C^DE F/4E/4F/4E/4DE | ^F^F,G, A,B,^C | %668
 ^DE^F G/4F/4G/4F/4EF | GA,B, ^C^DE | ^FG,A, B,^C^D | E2 A, B,2 B,, | E,^F,G, G,A,_B, | %673
 ^C,3 z2 A,, | D,F,A, D2 C, | B,,3 z2 G,, | C,E,G, C2 B,, | A,,3 A,3- | A,3 ^G,3 | A,3 F,3 | %680
 E,3 E,,^F,,^G,, | A,,B,,C, ^G,,A,,B,, | C,D,E, E,^F,^G, | A,B,C ^G,A,B, |[I:staff -1] CDE E^F^G | %685
 A2 D E2[I:staff +1] E, | A,3- A,E,C, | A,,3 A,3- | A,3 ^G,3 | A,3 F,3 | E,3- E,^F,^G, | %691
 A,B,C F,G,A, | B,CD G,A,B, | CDE F/4E/4F/4E/4DE | FF,G, A,B,C | DEF G/4F/4G/4F/4EF | GG,A, B,CD | %697
 EFG A/4G/4A/4G/4FG | AA,B, CDE | FG,A, B,CD | EF,G, A,B,C | DEF B,CD | G,3 z2 F | EFG CDE | %704
 B,CD G,A,B, | E,F,G, C,D,E, | B,,C,D, G,,A,,B,, | E,,3 z2 E, | F,G,A, A,B,C | D,,3 z2 D, | %710
 E,F,G, G,A,B, | C,,3 C,3- | C,3 B,,3 | C,3 A,,3 | G,,3- G,,A,,B,, | C,D,E, B,,C,D, | %716
 E,F,G, G,A,B, | CDE B,CD |[I:staff -1] EFG GAB | c2 F G2[I:staff +1] G, | C,3- C,G,,E,, | %721
 C,,3 C,3- | C,3 B,,3 | C,3 F,,3 | G,,3- G,,A,,B,, | C,D,E, ^F,G,A, | B,,B,A, ^G,A,^F, | %727
 ^G,^F,E, D,C,B,, | A,,A,G, ^F,G,E, | ^F,E,D, C,B,,A,, | G,,G,^F, E,^D,E, | ^F,,^F,E, ^D,^C,D, | %732
 E,,E,D, C,B,,A,, | B,,3- B,,^C,^D, | E,^F,G, C,D,E, | ^F,G,A, D,E,F, | G,A,B, E,^F,G, | %737
 A,B,C ^F,G,A, | B,^C^D E/4D/4E/4D/4CD | EE,^F, G,A,B, | ^C^DE F/4E/4F/4E/4DE | ^F^F,G, A,B,^C | %742
 ^DE^F G/4F/4G/4F/4EF | GA,B, ^C^DE | ^FG,A, B,^C^D | E2 A, B,2 B,, | E,^F,G, G,A,_B, | %747
 ^C,3 z2 A,, | D,F,A, D2 C, | B,,3 z2 G,, | C,E,G, C2 B,, | A,,3 A,3- | A,3 ^G,3 | A,3 F,3 | %754
 E,3 E,,^F,,^G,, | A,,B,,C, ^G,,A,,B,, | C,D,E, E,^F,^G, | A,B,C ^G,A,B, |[I:staff -1] CDE E^F^G | %759
 A2 D E2[I:staff +1] E, | A,,3- A,,2 z |] %761
V:3
 x6 | x6 | x6 | x6 | x6 | x6 | x6 | x6 | x6 | x6 | x6 | x6 | x6 | x6 | x6 | x6 | x6 | x6 | z6 | %19
 x6 | x6 | x6 | x6 | x6 | x6 | x6 | x6 | x6 | x6 | x6 | z z/ B,,/ C,D, E,F, | x6 | x6 | x6 | x6 | %35
 x6 | x6 | x6 | x6 | x6 | x6 | x6 | x6 | x6 | x6 | x6 | A,,2 z A, B,G, | x6 | x6 | z2 F,D, E,E, | %50
 x6 | x6 | x6 | x6 | x6 | x6 | x6 | x6 | x6 | x6 | x6 | x6 | x6 | x6 | x6 | x6 | x6 | x6 | x6 | %69
 x6 | x6 | x6 | x6 | x6 | x6 | x6 | x6 | x6 | x6 | x6 | x6 | x6 | x6 | x6 | x6 | x6 | x6 | x6 | %88
 x6 | z2 z E, E,^D, | E, z z4 | x6 | x6 | x6 | x6 | x6 | x6 | x6 | x6 | x6 | x6 | x6 | x6 | x6 | %104
 x6 | x6 | x6 | x6 | x6 | x6 | x6 | x6 | x6 | x6 | x6 | x6 | x6 | x6 | x6 | x6 | x6 | x6 | x6 | %123
 x6 | x6 | x6 | x6 | A,6 | x6 | x6 | x6 | x6 | x6 | x6 | x6 | x6 | x6 | x6 | x6 | %139
 z z/ B,,/ C,D, E,F, | x6 | x6 | x6 | x6 | x6 | x6 | x6 | x6 | x6 | x6 | x6 | x6 | x6 | x6 | x6 | %155
 x6 | x6 | x6 | z2 z A, A,^G, | x6 | x6 | x6 | z4 E,2 | x6 |[M:4/4] x8 | x8 | z6 ^G,2 | x8 | x8 | %169
 x8 | x8 | x8 | x8 | z4 B,,4- | B,,4 z4 | x8 | E,4 z/ E,,3/2- E,,3/2 z/ | x8 | z6 ^G,2 | x8 | x8 | %181
 x8 | x8 | x8 | x8 | z4 B,,4- | B,,4 z4 | x8 | E,4 z/ E,,3/2- E,,3/2 x/ | x8 | x8 | x8 | x8 | x8 | %194
 A,3/2 z/ z2 z2 A,2- | A,2 z2 z4 | x8 | x8 | x8 | x8 | A,,4 z/ A,,3/2- A,,3/2 z/ | x8 | x8 | x8 | %204
 x8 | x8 | A,3/2 z/ z2 z2 A,2- | A,2 z2 z4 | x8 | x8 | x8 | x8 | A,,4 z/ A,,3/2- A,,3/2 x/ | %213
[M:3/2] x12 | x12 | x12 | x12 | x12 | x12 | x12 | x12 | x12 | C,3 D, z8 | x12 | x12 | %225
 z2 C,,4- C,,4- C,, z | x12 | x12 | x12 | x12 | x12 | x12 | x12 | x12 | C,3 D, z8 | x12 | x12 | %237
 z2 C,,4- C,,4- C,, x | x12 | x12 | x12 | x12 | x12 | x12 | x12 | x12 | x12 | x12 | x12 | %249
 A,,6- A,,4- A,, z | x12 | x12 | x12 | x12 | x12 | x12 | x12 | x12 | x12 | x12 | x12 | %261
 A,,6- A,,4- A,, x | x12 |[M:3/4][I:staff -1] E2 ED CB, |[I:staff +1] A,2 A,4 | %265
 !arpeggio!C,2 D,2 z2 | A,,2 C,2 E,2 | x6 | x6 | CB, A,G, F,2 | F,E, G,F, E,D, | x6 | x6 | x6 | %274
[I:staff -1] FD E4 | x6 |[I:staff +1] A,2 A,4 | !arpeggio!C,2 D,2 z2 | A,,2 C,2 E,2 | x6 | x6 | %281
 CB, A,G, F,2 | F,E, G,F, E,D, | x6 | x6 | x6 |[I:staff -1] FD E4 |[I:staff +1] C,E, G,2 G,,2 | %288
 C,2 C,B,, A,,G,, | ^F,,2 E,,2 E,2 | B,,2 B,A, G,^F, | x6 | x6 | x6 | x6 | x6 | x6 | D,2 E,2 F,2 | %298
 x6 | x6 | x6 | x6 | x6 | C,E, G,2 G,,2 | C,2 C,B,, A,,G,, | x6 | B,,2 B,A, G,^F, | x6 | x6 | x6 | %310
 x6 | x6 | x6 | D,2 E,2 F,2 | x6 | x6 | x6 | x6 | x6 |[M:4/4] x8 | x8 | x8 | x8 | x8 | x8 | x8 | %326
 x8 | x8 | x8 | x8 | x8 | x8 | x8 | x8 | x8 | x8 | x8 | x8 | x8 | x8 | x8 | x8 | x8 | x8 | x8 | %345
 x8 | x8 | x8 | x8 | x8 | x8 | x8 | x8 | x8 | x8 | x8 | x8 | x8 | x8 | x8 | x8 | x8 | x8 | x8 | %364
 x8 | x8 | x8 | x8 | x8 | x8 | x8 | x8 | x8 | x8 | x8 | x8 | x8 | x8 | x8 | x8 | x8 | x8 | x8 | %383
 x8 | x8 | x8 | x8 | x8 | x8 | x8 | x8 | x8 | x8 | x8 | x8 | x8 | x8 | x8 | x8 | A,,6 z2 | x8 | %401
 x8 | x8 | x8 | x8 | x8 | x8 | x8 | x8 | x8 | x8 | x8 | x8 | x8 | x8 | x8 | x8 | x8 | x8 | x8 | %420
 x8 | x8 | x8 | x8 | x8 | x8 | x8 | x8 | x8 | x8 | x8 |[M:3/4] A,,6 |[M:1/4] A,2 |[M:4/4] A,8- | %434
 A,8- | A,2 A,2 ^G,2 E,2 | z2 E,2 ^C,2 E,2 | A,8- | A,2 ^G,2 ^F,2 A,2 | x8 | x6 A,2 | A,8- | A,8- | %443
 A,2 A,2 ^G,2 E,2 | z2 E,2 ^C,2 E,2 | A,8- | A,2 ^G,2 ^F,2 A,2 | x8 | E,2 B,,2 E,,2 E,2 | E,8- | %450
 E,6 ^C,2 | D,2 ^C,2 B,,2 D,2 | ^C,6 C,2 | ^F,8- | F,8- | F,2 B,,2 D,4 | %456
 ^F,D,^C,B,, A,,^G,,A,,^F,, | B,,6 B,,2 | E,,6 E,,2 | A,,6 A,,2 | D,,6 D,2 | ^G,,4 A,,4 | D,6 D,2 | %463
 ^C,2 D,2 E,2 E,,2 | A,,6 E,2 | E,8- | E,6 ^C,2 | D,2 ^C,2 B,,2 D,2 | ^C,6 C,2 | ^F,8- | F,8- | %471
 F,2 B,,2 D,4 | ^F,D,^C,B,, A,,^G,,A,,^F,, | B,,6 B,,2 | E,,6 E,,2 | A,,6 A,,2 | D,,6 D,2 | %477
 ^G,,4 A,,4 | D,6 D,2 | ^C,2 D,2 E,2 E,,2 |[M:3/4] A,,6 |[M:1/4] x2 |[M:4/4] x8 | x8 | x8 | x8 | %486
 x8 | x8 | x8 | x8 | x8 | x8 | x8 | x8 | x8 | x8 | x8 | x8 | x8 | x8 | x8 | x8 | x8 | x8 | x8 | %505
 x8 | x8 | x8 | x8 | x8 | x8 | x8 | x8 | x8 | x8 | x8 | x8 | x8 | x8 | x8 | x8 | x8 | x8 | x8 | %524
 x8 | x8 | x8 | x8 | x8 | x8 | x8 | x8 | x8 | x8 | x8 | x8 | x8 | A,,6 x2 |[M:6/8] x6 | x6 | x6 | %541
 x6 | x6 | x6 | x6 | x6 | x6 | x6 | x6 | x6 | x6 | x6 | x6 | x6 | x6 | x6 | x6 | x6 | x6 | x6 | %560
 x6 | x6 | x6 | x6 | x6 | x6 | x6 | x6 | x6 | x6 | x6 | x6 | x6 | x6 | x6 | x6 | x6 | x6 | x6 | %579
 x6 | x6 | x6 | x6 | x6 | x6 | x6 | x6 | x6 | x6 | x6 | x6 | x6 | x6 | x6 | x6 | x6 | x6 | x6 | %598
 x6 | x6 | x6 | x6 | x6 | x6 | x6 | x6 | x6 | x6 | x6 | x6 | x6 | x6 | x6 | x6 | x6 | x6 | x6 | %617
 x6 | x6 | x6 | x6 | x6 | x6 | x6 | x6 | x6 | x6 | x6 | x6 | x6 | x6 | x6 | x6 | x6 | x6 | x6 | %636
 x6 | x6 | x6 | x6 | x6 | x6 | x6 | x6 | x6 | x6 | x6 | x6 | x6 | x6 | x6 | x6 | x6 | x6 | x6 | %655
 x6 | x6 | x6 | x6 | x6 | x6 | x6 | x6 | x6 | x6 | x6 | x6 | x6 | x6 | x6 | x6 | x6 | x6 | x6 | %674
 x6 | x6 | x6 | x6 | x6 | x6 | x6 | x6 | x6 | x6 | x6 | x6 | x6 | x6 | x6 | x6 | x6 | x6 | x6 | %693
 x6 | x6 | x6 | x6 | x6 | x6 | x6 | x6 | x6 | x6 | x6 | x6 | x6 | x6 | x6 | x6 | x6 | x6 | x6 | %712
 x6 | x6 | x6 | x6 | x6 | x6 | x6 | x6 | x6 | x6 | x6 | x6 | x6 | x6 | x6 | x6 | x6 | x6 | x6 | %731
 x6 | x6 | x6 | x6 | x6 | x6 | x6 | x6 | x6 | x6 | x6 | x6 | x6 | x6 | x6 | x6 | x6 | x6 | x6 | %750
 x6 | x6 | x6 | x6 | x6 | x6 | x6 | x6 | x6 | x6 | x6 |] %761
V:4
 x6 | x6 | x6 | x6 | x6 | x6 | x6 | x6 | x6 | x6 | x6 | x6 | x6 | x6 | x6 | x6 | x6 | x6 | x6 | %19
 x6 | x6 | x6 | x/ c/A/G/ F/E/D/E/ z2 | z/ A/G/F/ E/D/C/D/ z2 | z/ G/F/E/ z4 | x6 | x6 | x6 | x6 | %29
 x6 | x6 | x6 | x6 | x6 | z z/ B/ cd ef | x6 | x6 | x6 | x6 | x6 | x6 | x6 | x6 | x6 | x6 | x6 | %46
 x6 |[I:staff +1] C2[I:staff -1] z A A^G | A z z A ^GE | D2 CB, CB, | %50
[I:staff +1] A,[I:staff -1] z z4 | x6 | x6 | x6 | z C CC CC | CB, B,B, B,B, | CE EE EE | %57
 E^D DD DD | E z z4 | x6 | x6 | z[I:staff +1] G, G,G, G,G, | G,^F, F,F, F,F, | G,B, B,B, B,B, | %64
 B,^A, A,A, A,A, | B,[I:staff -1] z z2 z B | B/ z/ z z4 | z4 z A | A/ z/ z z4 | x6 | x6 | x6 | x6 | %73
 x6 | x6 | x6 | x6 | x6 | x6 | z B BB BB | BA AA AA | B/ z/ z z4 | x6 | x6 | x6 | x6 | %86
 z2 z[I:staff +1] G, A,F, | G,2[I:staff -1] z[I:staff +1] E E^D | %88
 E[I:staff -1] z z[I:staff +1] E ^DB, | A,2 G,^F, G,F, | x6 | x6 | x6 |[I:staff -1] z4 ^D2 | %94
 EE EE EE | GE EE E z | z D DD DD | FD DD D z | x6 | x6 | x6 | x6 | x6 | x6 | x6 | x6 | x6 | %107
 z2 C2 z G | G2 B4 | x6 | x6 | x6 | x6 | x6 | x6 | x6 | x6 | x6 | x6 | x6 | x6 | x6 | x6 | x6 | %124
 x6 | x6 | x6 | x6 | x6 | x6 | x6 | z/ B/A/G/ F/E/D/E/ z2 | z/ A/G/F/ E/D/C/D/ z2 | z/ G/F/E/ z4 | %134
 x6 | x6 | x6 | x6 | x6 | x6 | x6 | z z/ B,/ CD EF |[I:staff +1] E2[I:staff -1] z4 | %143
 z z/ B/ cd ef | x6 | x6 | x6 | x6 | x6 | x6 | x6 | x6 | x6 | x6 | x6 | z2 z[I:staff +1] C DB, | %156
 C2[I:staff -1] z A A^G | A z z A ^GE | D2 CB, CB, |[I:staff +1] A,[I:staff -1] z z4 | x6 | x6 | %162
 x6 | x6 |[M:4/4] x8 | c4 B2 ^G z | A z c2 B4 | E z z2 z4 | z4 z/ d/c/B/ A/c/B/d/ | %169
 ^F>A ^G/A/B/4A/4G/4A/4 B4- | B2 A2 z/ G3/2 g>g | c2 c2 B2- B/ z/ z | x8 | x8 | x8 | x8 | %176
 z/ d/c/B/ c/^G/A/c/ B7/2 z/ | c4 B2 ^G z | A z c2 B4 | E z z2 z4 | z4 z/ d/c/B/ A/c/B/d/ | %181
 ^F>A ^G/A/B/4A/4G/4A/4 B4- | B2 A2 z/ G3/2 g>g | c2 c2 B2- B/ z/ z | x8 | x8 | x8 | x8 | %188
 z/ d/c/B/ c/^G/A/c/ B7/2 x/ | ^G3/2 z/ z2 z4 | x8 | z/ A/D z2 G3 ^F | %192
 G3/2 z/ z2 z2[I:staff +1] B,2- | B,4- B,B, E,^G, |[I:staff -1] z2 z3/2 e/ ed ^c2 | x8 | x8 | x8 | %198
 x8 | a/f/e/d/- d>d dc/B/ A^G | z/ G/F/E/ F/^C/D/F/ E7/2 z/ | ^G3/2 z/ z2 z4 | x8 | %203
 z/ A/D z2 G3 ^F | G3/2 z/ z2 z2[I:staff +1] B,2- | B,4- B,B, E,^G, | %206
[I:staff -1] z2 z3/2 e/ ed ^c2 | x8 | x8 | x8 | x8 | a/f/e/d/- d>d dc/B/ A^G | %212
 z/ G/F/E/ F/^C/D/F/ E7/2 z/ |[M:3/2] x12 | [CE]3 z z8 | x12 | z E A4 ^G2 A4 | z A ^G2 z8 | x12 | %219
 x12 | x12 | !arpeggio![Gd]3 z z8 | x12 | x12 | x12 | z6 [EG]4- [EG] z | [CE]3 z z8 | x12 | %228
 z E A4 ^G2 A4 | z A ^G2 z8 | x12 | x12 | x12 | !arpeggio![Gd]3 z z8 | x12 | x12 | x12 | %237
 z6 [EG]4- [EG] x | x12 | x12 | x12 | x12 | x12 | x12 | x12 | x12 | x12 | x12 | x12 | %249
 z6 [CE]4- [CE] z | x12 | x12 | x12 | x12 | x12 | x12 | x12 | x12 | x12 | x12 | x12 | %261
 z6 [CE]4- [CE] x | x12 |[M:3/4] A2 F2 EE | C2 C4 | !arpeggio!A2 cB A^G | ^G2{G} A/4G/4A3/2 E2 | %267
 x6 | x6 | c2 c2 A2 | B2 B4 | x6 | x6 | z2 c2 B2 | G2 G4 | A2 F2 E2 | C2 C4 | !arpeggio!A2 cB A^G | %278
 ^G2 A2 E2 | x6 | x6 | c2 c2 A2 | B2 B4 | x6 | x6 | z2 c2 B2 | G2 G4 | E2 ED CB, | C2 C4 | %289
 ^D2 E2 E2 | ^F2 B2 z2 | x6 | x6 | z a g^f e^d |{^d} e2 B4 | z2 z f ed | ^c2 c4 | z2 z e dc | %298
 B2 B4 | c4- cc | fe dc Bc | A2 A2 ^G2 | E2 E4 | E2 ED CB, | C2 C4 | x6 | ^F2 B2 z2 | x6 | x6 | %309
 z4 z ^d | ^de B4 | z2 z f ed | ^c2 c4 | z2 z e dc | B2 B4 | z4 z c | fe dc Bc | A2 A2 ^G2 | %318
 E2 E4 |[M:4/4] x8 | x8 | x8 | x8 | x8 | x8 | x8 | x8 | x8 | x8 | x8 | x8 | x8 | x8 | x8 | x8 | %335
 x8 | x8 | x8 | x8 | x8 | x8 | x8 | x8 | x8 | x8 | x8 | x8 | x8 | x8 | x8 | x8 | x8 | x8 | x8 | %354
 x8 | x8 | x8 | x8 | x8 | x8 | x8 | x8 | x8 | x8 | x8 | x8 | x8 | x8 | x8 | x8 | x8 | x8 | x8 | %373
 x8 | x8 | x8 | x8 | x8 | x8 | x8 | x8 | x8 | x8 | x8 | x8 | x8 | x8 | x8 | x8 | x8 | x8 | x8 | %392
 x8 | x8 | x8 | x8 | x8 | x8 | x8 | x8 | x8 | x8 | x8 | x8 | x8 | x8 | x8 | x8 | x8 | x8 | x8 | %411
 x8 | x8 | x8 | x8 | x8 | x8 | x8 | x8 | x8 | x8 | x8 | x8 | x8 | x8 | x8 | x8 | x8 | x8 | x8 | %430
 x8 |[M:3/4] x6 |[M:1/4] x2 |[M:4/4] x8 | x8 | x8 | x8 | x8 | x8 | E6 ^D2 | E6 z2 | x8 | x8 | x8 | %444
 x8 | x8 | x8 | E6 ^D2 | x8 | x8 | x8 | x8 | x8 | x8 | x8 | x8 | z6 ^C2 | B,2 ^D^C D2 D2 | E6 B,2 | %459
 A,2 ^CB, C2 C2 | D6 D2 | D2 E2 E4 | E6 E2 | E3 A ^G4 | z E ^C4 z2 | x8 | x8 | x8 | x8 | x8 | x8 | %471
 x8 | z6 ^C2 | B,2 ^D^C D2 D2 | E6 B,2 | A,2 ^CB, C2 C2 | D6 D2 | D2 E2 E4 | E6 E2 | E3 A ^G4 | %480
[M:3/4] z E ^C4 |[M:1/4] x2 |[M:4/4] x8 | x8 | x8 | x8 | x8 | x8 | x8 | x8 | x8 | x8 | x8 | x8 | %494
 x8 | x8 | x8 | x8 | x8 | x8 | x8 | x8 | x8 | x8 | x8 | x8 | x8 | x8 | x8 | x8 | x8 | x8 | x8 | %513
 x8 | x8 | x8 | x8 | x8 | x8 | x8 | x8 | x8 | x8 | x8 | x8 | x8 | x8 | x8 | x8 | x8 | x8 | x8 | %532
 x8 | x8 | x8 | x8 | x8 | x8 |[M:6/8] x6 | x6 | x6 | x6 | x6 | x6 | x6 | x6 | x6 | x6 | x6 | x6 | %550
 x6 | x6 | x6 | x6 | x6 | x6 | x6 | x6 | x6 | x6 | x6 | x6 | x6 | x6 | x6 | x6 | x6 | x6 | x6 | %569
 x6 | x6 | x6 | x6 | x6 | x6 | x6 | x6 | x6 | x6 | x6 | x6 | x6 | x6 | x6 | x6 | x6 | x6 | x6 | %588
 x6 | x6 | x6 | x6 | x6 | x6 | x6 | x6 | x6 | x6 | x6 | x6 | x6 | x6 | x6 | x6 | x6 | x6 | x6 | %607
 x6 | x6 | x6 | x6 | x6 | x6 | x6 | x6 | x6 | x6 | x6 | x6 | x6 | x6 | x6 | x6 | x6 | x6 | x6 | %626
 x6 | x6 | x6 | x6 | x6 | x6 | x6 | x6 | x6 | x6 | x6 | x6 | x6 | x6 | x6 | x6 | x6 | x6 | x6 | %645
 x6 | x6 | x6 | x6 | x6 | x6 | x6 | x6 | x6 | x6 | x6 | x6 | x6 | x6 | x6 | x6 | x6 | x6 | x6 | %664
 x6 | x6 | x6 | x6 | x6 | x6 | x6 | x6 | x6 | x6 | x6 | x6 | x6 | x6 | x6 | x6 | x6 | x6 | x6 | %683
 x6 | x6 | x6 | x6 | x6 | x6 | x6 | x6 | x6 | x6 | x6 | x6 | x6 | x6 | x6 | x6 | x6 | x6 | x6 | %702
 x6 | x6 | x6 | x6 | x6 | x6 | x6 | x6 | x6 | x6 | x6 | x6 | x6 | x6 | x6 | x6 | x6 | x6 | x6 | %721
 x6 | x6 | x6 | x6 | x6 | x6 | x6 | x6 | x6 | x6 | x6 | x6 | x6 | x6 | x6 | x6 | x6 | x6 | x6 | %740
 x6 | x6 | x6 | x6 | x6 | x6 | x6 | x6 | x6 | x6 | x6 | x6 | x6 | x6 | x6 | x6 | x6 | x6 | x6 | %759
 x6 | x6 |] %761
V:5
 x6 | x6 | x6 | x6 | x6 | x6 | x6 | x6 | x6 | x6 | x6 | x6 | x6 | x6 | x6 | x6 | x6 | x6 | x6 | %19
 x6 | x6 | x6 | x6 | x6 | x6 | x6 | x6 | x6 | x6 | x6 | x6 | x6 | x6 | x6 | x6 | x6 | x6 | x6 | %38
 x6 | x6 | x6 | x6 | x6 | x6 | x6 | x6 | x6 | x6 | x6 | x6 | x6 | x6 | x6 | x6 | x6 | x6 | x6 | %57
 x6 | x6 | x6 | x6 | x6 | x6 | x6 | x6 | z4 z ^F | ^G/ z/ z z4 | z4 z E | ^F/ z/ z z4 | x6 | x6 | %71
 x6 | x6 | x6 | x6 | x6 | x6 | x6 | x6 | x6 | x6 | x6 | x6 | x6 | x6 | x6 | x6 | x6 | x6 | x6 | %90
 x6 | x6 | x6 | x6 | x6 | ^C z z4 | x6 | B z z4 | x6 | x6 | x6 | x6 | x6 | x6 | x6 | x6 | x6 | %107
 z2 A,2 z D | x6 | x6 | x6 | x6 | x6 | x6 | x6 | x6 | x6 | x6 | x6 | x6 | x6 | x6 | x6 | x6 | x6 | %125
 x6 | x6 | x6 | x6 | x6 | x6 | x6 | x6 | x6 | x6 | x6 | x6 | x6 | x6 | x6 | x6 | x6 | x6 | x6 | %144
 x6 | x6 | x6 | x6 | x6 | x6 | x6 | x6 | x6 | x6 | x6 | x6 | x6 | x6 | x6 | x6 | x6 | x6 | x6 | %163
 x6 |[M:4/4] x8 | z/ E/A/G/ FE FD[I:staff +1] B,[I:staff -1]^G | x8 | x8 | x8 | x8 | z4 z B B>B | %171
 B2 A2 A2 G/ z/ z | x8 | x8 | x8 | x8 | z2 z/ =G/A G7/2 z/ | %177
 z/ E/A/G/ FE FD[I:staff +1] B,[I:staff -1]^G | x8 | x8 | x8 | x8 | z4 z B B>B | B2 A2 A2 G/ z/ z | %184
 x8 | x8 | x8 | x8 | z2 z/ =G/A G7/2 x/ | E3/2 z/ z2 z4 | x8 | x8 | x8 | x8 | x8 | x8 | x8 | x8 | %198
 x8 | x8 | z2 z/ =C/D C7/2 z/ | E3/2 z/ z2 z4 | x8 | x8 | x8 | x8 | x8 | x8 | x8 | x8 | x8 | x8 | %212
 z2 z/ =C/D C7/2 z/ |[M:3/2] x12 | x12 | x12 | x12 | x12 | x12 | x12 | x12 | x12 | x12 | x12 | %224
 x12 | x12 | x12 | x12 | x12 | x12 | x12 | x12 | x12 | x12 | x12 | x12 | x12 | x12 | x12 | x12 | %240
 x12 | x12 | x12 | x12 | x12 | x12 | x12 | x12 | x12 | x12 | x12 | x12 | x12 | x12 | x12 | x12 | %256
 x12 | x12 | x12 | x12 | x12 | x12 | x12 |[M:3/4] x6 | x6 |[I:staff +1] !arpeggio!E2 F2 E2 | x6 | %267
 x6 | x6 | x6 | x6 | x6 | x6 |[I:staff -1] z2 G2 F2 | x6 | E2 ED CB, | x6 | %277
[I:staff +1] !arpeggio!E2 F2 E2 | x6 | x6 | x6 | x6 | x6 | x6 | x6 |[I:staff -1] z2 G2 F2 | x6 | %287
 x6 | x6 | x6 | x6 | x6 | x6 | z2 e2 B2 | B2 G4 | x6 | z _B AG FE | x6 | z A GF ED | x6 | x6 | %301
 z2 E2 D2 | C2 C4 | x6 | x6 | x6 | x6 | x6 | x6 | z4 z B | B2 G4 | x6 | z _B AG FE | x6 | %314
 z A GF ED | x6 | x6 | z2 E2 D2 | C2 C4 |[M:4/4] x8 | x8 | x8 | x8 | x8 | x8 | x8 | x8 | x8 | x8 | %329
 x8 | x8 | x8 | x8 | x8 | x8 | x8 | x8 | x8 | x8 | x8 | x8 | x8 | x8 | x8 | x8 | x8 | x8 | x8 | %348
 x8 | x8 | x8 | x8 | x8 | x8 | x8 | x8 | x8 | x8 | x8 | x8 | x8 | x8 | x8 | x8 | x8 | x8 | x8 | %367
 x8 | x8 | x8 | x8 | x8 | x8 | x8 | x8 | x8 | x8 | x8 | x8 | x8 | x8 | x8 | x8 | x8 | x8 | x8 | %386
 x8 | x8 | x8 | x8 | x8 | x8 | x8 | x8 | x8 | x8 | x8 | x8 | x8 | x8 | x8 | x8 | x8 | x8 | x8 | %405
 x8 | x8 | x8 | x8 | x8 | x8 | x8 | x8 | x8 | x8 | x8 | x8 | x8 | x8 | x8 | x8 | x8 | x8 | x8 | %424
 x8 | x8 | x8 | x8 | x8 | x8 | x8 |[M:3/4] x6 |[M:1/4] x2 |[M:4/4] x8 | x8 | x8 | x8 | x8 | x8 | %439
 x8 | x8 | x8 | x8 | x8 | x8 | x8 | x8 | x8 | x8 | x8 | x8 | x8 | x8 | x8 | x8 | x8 | x8 | x8 | %458
 x8 | x8 | x8 | x8 | x8 | x8 | x8 | x8 | x8 | x8 | x8 | x8 | x8 | x8 | x8 | x8 | x8 | x8 | x8 | %477
 x8 | x8 | x8 |[M:3/4] x6 |[M:1/4] x2 |[M:4/4] x8 | x8 | x8 | x8 | x8 | x8 | x8 | x8 | x8 | x8 | %492
 x8 | x8 | x8 | x8 | x8 | x8 | x8 | x8 | x8 | x8 | x8 | x8 | x8 | x8 | x8 | x8 | x8 | x8 | x8 | %511
 x8 | x8 | x8 | x8 | x8 | x8 | x8 | x8 | x8 | x8 | x8 | x8 | x8 | x8 | x8 | x8 | x8 | x8 | x8 | %530
 x8 | x8 | x8 | x8 | x8 | x8 | x8 | x8 |[M:6/8] x6 | x6 | x6 | x6 | x6 | x6 | x6 | x6 | x6 | x6 | %548
 x6 | x6 | x6 | x6 | x6 | x6 | x6 | x6 | x6 | x6 | x6 | x6 | x6 | x6 | x6 | x6 | x6 | x6 | x6 | %567
 x6 | x6 | x6 | x6 | x6 | x6 | x6 | x6 | x6 | x6 | x6 | x6 | x6 | x6 | x6 | x6 | x6 | x6 | x6 | %586
 x6 | x6 | x6 | x6 | x6 | x6 | x6 | x6 | x6 | x6 | x6 | x6 | x6 | x6 | x6 | x6 | x6 | x6 | x6 | %605
 x6 | x6 | x6 | x6 | x6 | x6 | x6 | x6 | x6 | x6 | x6 | x6 | x6 | x6 | x6 | x6 | x6 | x6 | x6 | %624
 x6 | x6 | x6 | x6 | x6 | x6 | x6 | x6 | x6 | x6 | x6 | x6 | x6 | x6 | x6 | x6 | x6 | x6 | x6 | %643
 x6 | x6 | x6 | x6 | x6 | x6 | x6 | x6 | x6 | x6 | x6 | x6 | x6 | x6 | x6 | x6 | x6 | x6 | x6 | %662
 x6 | x6 | x6 | x6 | x6 | x6 | x6 | x6 | x6 | x6 | x6 | x6 | x6 | x6 | x6 | x6 | x6 | x6 | x6 | %681
 x6 | x6 | x6 | x6 | x6 | x6 | x6 | x6 | x6 | x6 | x6 | x6 | x6 | x6 | x6 | x6 | x6 | x6 | x6 | %700
 x6 | x6 | x6 | x6 | x6 | x6 | x6 | x6 | x6 | x6 | x6 | x6 | x6 | x6 | x6 | x6 | x6 | x6 | x6 | %719
 x6 | x6 | x6 | x6 | x6 | x6 | x6 | x6 | x6 | x6 | x6 | x6 | x6 | x6 | x6 | x6 | x6 | x6 | x6 | %738
 x6 | x6 | x6 | x6 | x6 | x6 | x6 | x6 | x6 | x6 | x6 | x6 | x6 | x6 | x6 | x6 | x6 | x6 | x6 | %757
 x6 | x6 | x6 | x6 |] %761
V:6
 x6 | x6 | x6 | x6 | x6 | x6 | x6 | x6 | x6 | x6 | x6 | x6 | x6 | x6 | x6 | x6 | x6 | x6 | x6 | %19
 x6 | x6 | x6 | x6 | x6 | x6 | x6 | x6 | x6 | x6 | x6 | x6 | x6 | x6 | x6 | x6 | x6 | x6 | x6 | %38
 x6 | x6 | x6 | x6 | x6 | x6 | x6 | x6 | x6 | x6 | x6 | x6 | x6 | x6 | x6 | x6 | x6 | x6 | x6 | %57
 x6 | x6 | x6 | x6 | x6 | x6 | x6 | x6 | x6 | x6 | x6 | x6 | x6 | x6 | x6 | x6 | x6 | x6 | x6 | %76
 x6 | x6 | x6 | x6 | x6 | x6 | x6 | x6 | x6 | x6 | x6 | x6 | x6 | x6 | x6 | x6 | x6 | x6 | x6 | %95
 x6 | x6 | x6 | x6 | x6 | x6 | x6 | x6 | x6 | x6 | x6 | x6 | x6 | x6 | x6 | x6 | x6 | x6 | x6 | %114
 x6 | x6 | x6 | x6 | x6 | x6 | x6 | x6 | x6 | x6 | x6 | x6 | x6 | x6 | x6 | x6 | x6 | x6 | x6 | %133
 x6 | x6 | x6 | x6 | x6 | x6 | x6 | x6 | x6 | x6 | x6 | x6 | x6 | x6 | x6 | x6 | x6 | x6 | x6 | %152
 x6 | x6 | x6 | x6 | x6 | x6 | x6 | x6 | x6 | x6 | x6 | x6 |[M:4/4] x8 | x8 | x8 | x8 | x8 | x8 | %170
 x8 | x8 | x8 | x8 | x8 | x8 | z4 z/ E,,/^G,,/B,,/ z3/2 z/ | x8 | x8 | x8 | x8 | x8 | x8 | x8 | %184
 x8 | x8 | x8 | x8 | z4 z/ E,,/^G,,/B,,/ z3/2 x/ | x8 | x8 | x8 | x8 | x8 | x8 | x8 | x8 | x8 | %198
 x8 | x8 | z4 z/ A,,/^C,/E,/ z3/2 z/ | x8 | x8 | x8 | x8 | x8 | x8 | x8 | x8 | x8 | x8 | x8 | %212
 z4 z/ A,,/^C,/E,/ z3/2 x/ |[M:3/2] x12 | x12 | x12 | x12 | x12 | x12 | x12 | x12 | x12 | x12 | %223
 x12 | x12 | x12 | x12 | x12 | x12 | x12 | x12 | x12 | x12 | x12 | x12 | x12 | x12 | x12 | x12 | %239
 x12 | x12 | x12 | x12 | x12 | x12 | x12 | x12 | x12 | x12 | x12 | x12 | x12 | x12 | x12 | x12 | %255
 x12 | x12 | x12 | x12 | x12 | x12 | x12 | x12 |[M:3/4] x6 | x6 | !arpeggio!E,2 z4 | x6 | x6 | x6 | %269
 x6 | x6 | x6 | x6 | x6 | x6 | x6 | x6 | !arpeggio!E,2 z4 | x6 | x6 | x6 | x6 | x6 | x6 | x6 | x6 | %286
 x6 | x6 | x6 | x6 | x6 | x6 | x6 | x6 | x6 | x6 | x6 | x6 | x6 | x6 | x6 | x6 | x6 | x6 | x6 | %305
 x6 | x6 | x6 | x6 | x6 | x6 | x6 | x6 | x6 | x6 | x6 | x6 | x6 | x6 |[M:4/4] x8 | x8 | x8 | x8 | %323
 x8 | x8 | x8 | x8 | x8 | x8 | x8 | x8 | x8 | x8 | x8 | x8 | x8 | x8 | x8 | x8 | x8 | x8 | x8 | %342
 x8 | x8 | x8 | x8 | x8 | x8 | x8 | x8 | x8 | x8 | x8 | x8 | x8 | x8 | x8 | x8 | x8 | x8 | x8 | %361
 x8 | x8 | x8 | x8 | x8 | x8 | x8 | x8 | x8 | x8 | x8 | x8 | x8 | x8 | x8 | x8 | x8 | x8 | x8 | %380
 x8 | x8 | x8 | x8 | x8 | x8 | x8 | x8 | x8 | x8 | x8 | x8 | x8 | x8 | x8 | x8 | x8 | x8 | x8 | %399
 x8 | x8 | x8 | x8 | x8 | x8 | x8 | x8 | x8 | x8 | x8 | x8 | x8 | x8 | x8 | x8 | x8 | x8 | x8 | %418
 x8 | x8 | x8 | x8 | x8 | x8 | x8 | x8 | x8 | x8 | x8 | x8 | x8 |[M:3/4] x6 |[M:1/4] x2 | %433
[M:4/4] x8 | x8 | x8 | x8 | x8 | x8 | x8 | x8 | x8 | x8 | x8 | x8 | x8 | x8 | x8 | x8 | x8 | x8 | %451
 x8 | z6 ^G,2 | x8 | x8 | x8 | x8 | x8 | x8 | x8 | x8 | x8 | x8 | x8 | x8 | x8 | x8 | x8 | %468
 z6 ^G,2 | x8 | x8 | x8 | x8 | x8 | x8 | x8 | x8 | x8 | x8 | x8 |[M:3/4] x6 |[M:1/4] x2 | %482
[M:4/4] x8 | x8 | x8 | x8 | x8 | x8 | x8 | x8 | x8 | x8 | x8 | x8 | x8 | x8 | x8 | x8 | x8 | x8 | %500
 x8 | x8 | x8 | x8 | x8 | x8 | x8 | x8 | x8 | x8 | x8 | x8 | x8 | x8 | x8 | x8 | x8 | x8 | x8 | %519
 x8 | x8 | x8 | x8 | x8 | x8 | x8 | x8 | x8 | x8 | x8 | x8 | x8 | x8 | x8 | x8 | x8 | x8 | x8 | %538
[M:6/8] x6 | x6 | x6 | x6 | x6 | x6 | x6 | x6 | x6 | x6 | x6 | x6 | x6 | x6 | x6 | x6 | x6 | x6 | %556
 x6 | x6 | x6 | x6 | x6 | x6 | x6 | x6 | x6 | x6 | x6 | x6 | x6 | x6 | x6 | x6 | x6 | x6 | x6 | %575
 x6 | x6 | x6 | x6 | x6 | x6 | x6 | x6 | x6 | x6 | x6 | x6 | x6 | x6 | x6 | x6 | x6 | x6 | x6 | %594
 x6 | x6 | x6 | x6 | x6 | x6 | x6 | x6 | x6 | x6 | x6 | x6 | x6 | x6 | x6 | x6 | x6 | x6 | x6 | %613
 x6 | x6 | x6 | x6 | x6 | x6 | x6 | x6 | x6 | x6 | x6 | x6 | x6 | x6 | x6 | x6 | x6 | x6 | x6 | %632
 x6 | x6 | x6 | x6 | x6 | x6 | x6 | x6 | x6 | x6 | x6 | x6 | x6 | x6 | x6 | x6 | x6 | x6 | x6 | %651
 x6 | x6 | x6 | x6 | x6 | x6 | x6 | x6 | x6 | x6 | x6 | x6 | x6 | x6 | x6 | x6 | x6 | x6 | x6 | %670
 x6 | x6 | x6 | x6 | x6 | x6 | x6 | x6 | x6 | x6 | x6 | x6 | x6 | x6 | x6 | x6 | x6 | x6 | x6 | %689
 x6 | x6 | x6 | x6 | x6 | x6 | x6 | x6 | x6 | x6 | x6 | x6 | x6 | x6 | x6 | x6 | x6 | x6 | x6 | %708
 x6 | x6 | x6 | x6 | x6 | x6 | x6 | x6 | x6 | x6 | x6 | x6 | x6 | x6 | x6 | x6 | x6 | x6 | x6 | %727
 x6 | x6 | x6 | x6 | x6 | x6 | x6 | x6 | x6 | x6 | x6 | x6 | x6 | x6 | x6 | x6 | x6 | x6 | x6 | %746
 x6 | x6 | x6 | x6 | x6 | x6 | x6 | x6 | x6 | x6 | x6 | x6 | x6 | x6 | x6 |] %761
V:7
 x6 | x6 | x6 | x6 | x6 | x6 | x6 | x6 | x6 | x6 | x6 | x6 | x6 | x6 | x6 | x6 | x6 | x6 | x6 | %19
 x6 | x6 | x6 | x6 | x6 | x6 | x6 | x6 | x6 | x6 | x6 | x6 | x6 | x6 | x6 | x6 | x6 | x6 | x6 | %38
 x6 | x6 | x6 | x6 | x6 | x6 | x6 | x6 | x6 | x6 | x6 | x6 | x6 | x6 | x6 | x6 | x6 | x6 | x6 | %57
 x6 | x6 | x6 | x6 | x6 | x6 | x6 | x6 | x6 | x6 | x6 | x6 | x6 | x6 | x6 | x6 | x6 | x6 | x6 | %76
 x6 | x6 | x6 | x6 | x6 | x6 | x6 | x6 | x6 | x6 | x6 | x6 | x6 | x6 | x6 | x6 | x6 | x6 | x6 | %95
 x6 | x6 | x6 | x6 | x6 | x6 | x6 | x6 | x6 | x6 | x6 | x6 | x6 | x6 | x6 | x6 | x6 | x6 | x6 | %114
 x6 | x6 | x6 | x6 | x6 | x6 | x6 | x6 | x6 | x6 | x6 | x6 | x6 | x6 | x6 | x6 | x6 | x6 | x6 | %133
 x6 | x6 | x6 | x6 | x6 | x6 | x6 | x6 | x6 | x6 | x6 | x6 | x6 | x6 | x6 | x6 | x6 | x6 | x6 | %152
 x6 | x6 | x6 | x6 | x6 | x6 | x6 | x6 | x6 | x6 | x6 | x6 |[M:4/4] x8 | x8 | x8 | x8 | x8 | x8 | %170
 x8 | x8 | x8 | x8 | x8 | x8 | x8 | x8 | x8 | x8 | x8 | x8 | x8 | x8 | x8 | x8 | x8 | x8 | x8 | %189
 x8 | x8 | x8 | x8 | x8 | x8 | x8 | x8 | x8 | x8 | x8 | x8 | x8 | x8 | x8 | x8 | x8 | x8 | x8 | %208
 x8 | x8 | x8 | x8 | x8 |[M:3/2] x12 | x12 | x12 | x12 | x12 | x12 | x12 | x12 | x12 | x12 | x12 | %224
 x12 | x12 | x12 | x12 | x12 | x12 | x12 | x12 | x12 | x12 | x12 | x12 | x12 | x12 | x12 | x12 | %240
 x12 | x12 | x12 | x12 | x12 | x12 | x12 | x12 | x12 | x12 | x12 | x12 | x12 | x12 | x12 | x12 | %256
 x12 | x12 | x12 | x12 | x12 | x12 | x12 |[M:3/4] x6 | x6 | x6 | x6 | x6 | x6 | x6 | x6 | x6 | x6 | %273
 x6 | x6 | x6 | x6 | x6 | x6 | x6 | x6 | x6 | x6 | x6 | x6 | x6 | x6 | x6 | x6 | x6 | x6 | x6 | %292
 x6 | x6 | x6 | x6 | x6 | x6 | x6 | x6 | x6 | x6 | x6 | x6 | x6 | x6 | x6 | x6 | x6 | x6 | x6 | %311
 x6 | x6 | x6 | x6 | x6 | x6 | x6 | x6 |[M:4/4] x8 | x8 | x8 | x8 | x8 | x8 | x8 | x8 | x8 | x8 | %329
 x8 | x8 | x8 | x8 | x8 | x8 | x8 | x8 | x8 | x8 | x8 | x8 | x8 | x8 | x8 | x8 | x8 | x8 | x8 | %348
 x8 | x8 | x8 | x8 | x8 | x8 | x8 | x8 | x8 | x8 | x8 | x8 | x8 | x8 | x8 | x8 | x8 | x8 | x8 | %367
 x8 | x8 | x8 | x8 | x8 | x8 | x8 | x8 | x8 | x8 | x8 | x8 | x8 | x8 | x8 | x8 | x8 | x8 | x8 | %386
 x8 | x8 | x8 | x8 | x8 | x8 | x8 | x8 | x8 | x8 | x8 | x8 | x8 | x8 | x8 | x8 | x8 | x8 | x8 | %405
 x8 | x8 | x8 | x8 | x8 | x8 | x8 | x8 | x8 | x8 | x8 | x8 | x8 | x8 | x8 | x8 | x8 | x8 | x8 | %424
 x8 | x8 | x8 | x8 | x8 | x8 | x8 |[M:3/4] x6 |[M:1/4] x2 |[M:4/4] x8 | x8 | x8 | x8 | x8 | x8 | %439
 x8 | x8 | x8 | x8 | x8 | x8 | x8 | x8 | x8 | x8 | x8 | x8 | x8 | z6 ^E,2 | x8 | x8 | x8 | x8 | %457
 x8 | x8 | x8 | x8 | x8 | x8 | x8 | x8 | x8 | x8 | x8 | z6 ^E,2 | x8 | x8 | x8 | x8 | x8 | x8 | %475
 x8 | x8 | x8 | x8 | x8 |[M:3/4] x6 |[M:1/4] x2 |[M:4/4] x8 | x8 | x8 | x8 | x8 | x8 | x8 | x8 | %490
 x8 | x8 | x8 | x8 | x8 | x8 | x8 | x8 | x8 | x8 | x8 | x8 | x8 | x8 | x8 | x8 | x8 | x8 | x8 | %509
 x8 | x8 | x8 | x8 | x8 | x8 | x8 | x8 | x8 | x8 | x8 | x8 | x8 | x8 | x8 | x8 | x8 | x8 | x8 | %528
 x8 | x8 | x8 | x8 | x8 | x8 | x8 | x8 | x8 | x8 |[M:6/8] x6 | x6 | x6 | x6 | x6 | x6 | x6 | x6 | %546
 x6 | x6 | x6 | x6 | x6 | x6 | x6 | x6 | x6 | x6 | x6 | x6 | x6 | x6 | x6 | x6 | x6 | x6 | x6 | %565
 x6 | x6 | x6 | x6 | x6 | x6 | x6 | x6 | x6 | x6 | x6 | x6 | x6 | x6 | x6 | x6 | x6 | x6 | x6 | %584
 x6 | x6 | x6 | x6 | x6 | x6 | x6 | x6 | x6 | x6 | x6 | x6 | x6 | x6 | x6 | x6 | x6 | x6 | x6 | %603
 x6 | x6 | x6 | x6 | x6 | x6 | x6 | x6 | x6 | x6 | x6 | x6 | x6 | x6 | x6 | x6 | x6 | x6 | x6 | %622
 x6 | x6 | x6 | x6 | x6 | x6 | x6 | x6 | x6 | x6 | x6 | x6 | x6 | x6 | x6 | x6 | x6 | x6 | x6 | %641
 x6 | x6 | x6 | x6 | x6 | x6 | x6 | x6 | x6 | x6 | x6 | x6 | x6 | x6 | x6 | x6 | x6 | x6 | x6 | %660
 x6 | x6 | x6 | x6 | x6 | x6 | x6 | x6 | x6 | x6 | x6 | x6 | x6 | x6 | x6 | x6 | x6 | x6 | x6 | %679
 x6 | x6 | x6 | x6 | x6 | x6 | x6 | x6 | x6 | x6 | x6 | x6 | x6 | x6 | x6 | x6 | x6 | x6 | x6 | %698
 x6 | x6 | x6 | x6 | x6 | x6 | x6 | x6 | x6 | x6 | x6 | x6 | x6 | x6 | x6 | x6 | x6 | x6 | x6 | %717
 x6 | x6 | x6 | x6 | x6 | x6 | x6 | x6 | x6 | x6 | x6 | x6 | x6 | x6 | x6 | x6 | x6 | x6 | x6 | %736
 x6 | x6 | x6 | x6 | x6 | x6 | x6 | x6 | x6 | x6 | x6 | x6 | x6 | x6 | x6 | x6 | x6 | x6 | x6 | %755
 x6 | x6 | x6 | x6 | x6 | x6 |] %761

